assets/luts/Green1.cube
TITLE "Generated by Resolve"
LUT_3D_SIZE 5
0.0171511 0.0399786 0.0229648
0.0617075 0.0470741 0.0291142
0.263645 0.0746471 0.041001
0.625208 0.155383 0.0758984
0.830762 0.211582 0.0962844
0.0429541 0.115724 0.0322728
0.121172 0.141024 0.0382849
0.392264 0.197116 0.0552834
0.683497 0.251698 0.0776989
0.851148 0.284215 0.0953994
0.151034 0.364584 0.0751965
0.253864 0.411643 0.0999008
0.477485 0.443671 0.0935683
0.755444 0.464927 0.0959029
0.910018 0.475883 0.110124
0.34406 0.599115 0.298512
0.440208 0.63595 0.316381
0.580728 0.674998 0.30425
0.759533 0.699992 0.262867
0.919066 0.718547 0.21883
0.567483 0.752194 0.509896
0.666484 0.786877 0.521065
0.765606 0.821836 0.507698
0.879789 0.858259 0.500374
0.968231 0.88777 0.524758
0.0202335 0.0504768 0.0545815
0.0837873 0.0534676 0.0831464
0.323629 0.0506142 0.087068
0.65127 0.0970169 0.105577
0.840497 0.192126 0.119066
0.0457465 0.151568 0.104799
0.142916 0.187289 0.148638
0.452186 0.211582 0.151614
0.703746 0.223392 0.138247
0.868208 0.270298 0.133837
0.154574 0.410712 0.219638
0.237018 0.445899 0.2365
0.493019 0.476661 0.228473
0.760662 0.478859 0.192401
0.927047 0.483909 0.178195
0.340475 0.608301 0.406531
0.427543 0.636088 0.423728
0.592966 0.680247 0.418997
0.761501 0.705882 0.34934
0.939437 0.727871 0.303349
0.52398 0.739391 0.5523
0.64596 0.777035 0.586755
0.772656 0.821912 0.594736
0.885466 0.859892 0.578256
0.9729 0.89044 0.574212
0.0437781 0.0954604 0.16614
0.105409 0.114488 0.242908
0.399725 0.0559243 0.254063
0.649241 0.0791028 0.25803
0.848997 0.122194 0.25832
0.0869917 0.214511 0.242878
0.166842 0.261952 0.319356
0.539147 0.268635 0.400107
0.732235 0.262242 0.353231
0.882292 0.281956 0.30219
0.189105 0.440833 0.37467
0.240604 0.471351 0.408179
0.606332 0.548348 0.510689
0.790143 0.513909 0.435737
0.942565 0.503624 0.3935
0.349676 0.62388 0.505806
0.433005 0.648219 0.53402
0.624887 0.693431 0.580194
0.794003 0.717968 0.519387
0.968536 0.742687 0.469795
0.479591 0.730877 0.592752
0.592203 0.764523 0.630686
0.760037 0.812924 0.675746
0.88658 0.857557 0.667475
0.978653 0.894423 0.651514
0.132021 0.268315 0.367834
0.223972 0.327932 0.453605
0.571557 0.385 0.571557
0.743679 0.352468 0.560418
0.845396 0.355154 0.554864
0.188983 0.382452 0.430137
0.286915 0.435935 0.496696
0.585901 0.51397 0.610239
0.786252 0.496803 0.61532
0.886717 0.482567 0.599954
0.239963 0.504707 0.470787
0.342031 0.548791 0.528527
0.613245 0.623102 0.634867
0.811704 0.627665 0.658289
0.924834 0.60174 0.641505
0.331533 0.627039 0.555611
0.397604 0.652216 0.585641
0.594202 0.704326 0.653986
0.830076 0.742519 0.693019
0.972351 0.759228 0.680949
0.434455 0.732937 0.637705
0.545098 0.764645 0.674723
0.700343 0.804776 0.718975
0.872862 0.846159 0.754177
0.981292 0.886168 0.761471
0.279576 0.488563 0.561425
0.360769 0.525948 0.604532
0.535256 0.573022 0.665248
0.777264 0.61088 0.720989
0.855665 0.585336 0.714397
0.339315 0.553292 0.590707
0.429526 0.581109 0.631373
0.550072 0.619837 0.677501
0.791882 0.668376 0.737713
0.88539 0.660929 0.741436
0.340826 0.605081 0.600122
0.449042 0.63827 0.646281
0.626322 0.685481 0.70898
0.805844 0.730037 0.758083
0.917189 0.734264 0.769421
0.372122 0.670436 0.629938
0.48838 0.706294 0.675471
0.636469 0.746242 0.726787
0.827497 0.792065 0.78172
0.94638 0.808667 0.802335
0.465202 0.754986 0.689906
0.572885 0.78436 0.726848
0.706447 0.819394 0.767971
0.85362 0.852323 0.806226
0.967666 0.876631 0.831373
