assets/luts/Green2.cube
TITLE "Generated by Resolve"
LUT_3D_SIZE 65
0.00424201 0 0
0.0068513 0 0
0.00946059 0 0
0.0127413 0 0
0.016022 0 0
0.0210422 0 0
0.0260624 0 0
0.0331121 0 0
0.0401617 0 0
0.0500191 0 0.00015259
0.0598764 0 0.00030518
0.0713664 0 0.000839246
0.0828565 0 0.00137331
0.0975204 0.000122072 0.00190738
0.112184 0.000244144 0.00244144
0.127581 0.0024567 0.00302129
0.142977 0.00466926 0.00360113
0.15819 0.00839246 0.00474556
0.173404 0.0121157 0.00588998
0.188602 0.0159915 0.00662242
0.2038 0.0198672 0.00735485
0.21915 0.023682 0.00943008
0.234501 0.0274968 0.0115053
0.249653 0.030869 0.0154421
0.264805 0.0342412 0.019379
0.279759 0.0378119 0.02327
0.294713 0.0413825 0.0271611
0.30959 0.0445258 0.0302434
0.324468 0.0476692 0.0333257
0.339559 0.0510262 0.0367895
0.35465 0.0543832 0.0402533
0.370016 0.0576028 0.043473
0.385382 0.0608225 0.0466926
0.400092 0.0639353 0.0503395
0.414801 0.0670481 0.0539864
0.429892 0.0701152 0.057496
0.444984 0.0731823 0.0610056
0.460121 0.0764477 0.0650492
0.475257 0.0797131 0.0690929
0.49073 0.0829786 0.0731975
0.506188 0.086244 0.0773022
0.521248 0.0895399 0.0814069
0.536309 0.0928359 0.0855116
0.551583 0.0960861 0.0893873
0.566857 0.0993362 0.0932631
0.58175 0.102586 0.0971695
0.596643 0.105837 0.101076
0.611688 0.108858 0.104738
0.626734 0.111879 0.1084
0.641947 0.114885 0.112001
0.65716 0.117891 0.115602
0.672587 0.120912 0.119005
0.688014 0.123934 0.122408
0.702541 0.126909 0.125521
0.717067 0.129885 0.128634
0.731762 0.132769 0.131685
0.746456 0.135653 0.134737
0.760357 0.138323 0.137484
0.774258 0.140993 0.14023
0.788785 0.143587 0.142947
0.803311 0.146181 0.145663
0.816815 0.148516 0.148699
0.83032 0.150851 0.151736
0.844114 0.153185 0.154833
0.857908 0.15552 0.157931
0.00590524 0.00746166 0
0.00840772 0.00656138 0
0.0109255 0.0056611 0
0.0141909 0.00495918 0
0.0174716 0.00425727 0
0.0226902 0.0037232 4.57771e-05
0.027924 0.00320439 9.15541e-05
0.0351263 0.00309758 0.000213626
0.0423285 0.00297551 0.000320439
0.0520638 0.00328069 0.00062562
0.0618143 0.00358587 0.0009308
0.0733806 0.00433356 0.00143435
0.084947 0.00508125 0.00195315
0.0995499 0.00637827 0.00248722
0.114153 0.00769055 0.00302129
0.129519 0.0102693 0.00375372
0.144884 0.0128481 0.00450141
0.160128 0.0167391 0.00552377
0.175387 0.0206302 0.00653086
0.190616 0.0244602 0.00720226
0.205859 0.0283055 0.00787366
0.221195 0.032105 0.0102998
0.23653 0.0359045 0.0127413
0.251698 0.0392157 0.016556
0.266865 0.0425422 0.0203708
0.281865 0.046067 0.0242008
0.296864 0.0495918 0.0280308
0.311757 0.0527504 0.0312047
0.32665 0.0559091 0.0343786
0.341787 0.059266 0.0378576
0.356939 0.062623 0.0413367
0.37232 0.0658579 0.0446326
0.387717 0.0691081 0.0479286
0.402533 0.0722972 0.0515145
0.417365 0.0755016 0.0551003
0.432502 0.078584 0.0586709
0.447654 0.0816663 0.0622416
0.46276 0.0849165 0.0662547
0.477882 0.0881819 0.0702831
0.49337 0.0914778 0.0742809
0.508873 0.094789 0.078294
0.523919 0.0981613 0.0823377
0.538949 0.101549 0.0863813
0.554253 0.104829 0.0902419
0.569558 0.10811 0.0941176
0.58439 0.111376 0.0979019
0.599222 0.114641 0.101701
0.614298 0.117708 0.105379
0.629374 0.12079 0.109056
0.644541 0.123827 0.112551
0.659709 0.126879 0.11606
0.675166 0.129885 0.119432
0.690623 0.132891 0.12282
0.705028 0.135866 0.125872
0.719432 0.138857 0.128923
0.734188 0.141772 0.131945
0.748928 0.144686 0.134981
0.762707 0.147372 0.137667
0.776471 0.150057 0.140352
0.791012 0.152682 0.143023
0.805554 0.155322 0.145708
0.818936 0.157671 0.148623
0.832303 0.160037 0.151553
0.846113 0.162402 0.15462
0.859907 0.164767 0.157702
0.00756847 0.0149233 0
0.0099794 0.0131228 0
0.0123903 0.0113222 0
0.0156558 0.00991836 0
0.0189212 0.00851453 0
0.0243534 0.00746166 9.15541e-05
0.0297856 0.00640879 0.000183108
0.0371405 0.0061799 0.000411994
0.0444953 0.00595102 0.000640879
0.0541238 0.00656138 0.00109865
0.0637522 0.00717174 0.00155642
0.0753948 0.00866712 0.00204471
0.0870375 0.0101625 0.002533
0.101579 0.0126497 0.00306706
0.116121 0.0151369 0.00360113
0.131456 0.0180819 0.00450141
0.146792 0.0210269 0.00540169
0.162081 0.0250858 0.00628672
0.177371 0.0291447 0.00717174
0.192645 0.0329442 0.0077821
0.207919 0.0367437 0.00839246
0.223239 0.040528 0.0111849
0.23856 0.0443122 0.0139773
0.253742 0.0475776 0.0176699
0.268925 0.0508431 0.0213626
0.28397 0.0543221 0.0251316
0.299016 0.0578012 0.0289006
0.313924 0.0609751 0.032166
0.328832 0.0641489 0.0354314
0.34403 0.0675059 0.0389258
0.359228 0.0708629 0.0424201
0.37464 0.0741283 0.0457923
0.390051 0.0773938 0.0491646
0.40499 0.0806744 0.0526894
0.419928 0.0839551 0.0562142
0.435126 0.0870527 0.0598459
0.450324 0.0901503 0.0634775
0.465415 0.0934005 0.0674754
0.480507 0.0966506 0.0714733
0.496025 0.0999924 0.0753796
0.511559 0.103334 0.0792859
0.526574 0.106798 0.0832685
0.541588 0.110262 0.0872511
0.556924 0.113573 0.0911116
0.572259 0.116884 0.0949722
0.58703 0.120165 0.0986496
0.601801 0.123445 0.102327
0.616907 0.126574 0.10602
0.632013 0.129702 0.109712
0.647135 0.132784 0.113115
0.662257 0.135866 0.116518
0.677745 0.138857 0.119875
0.693233 0.141848 0.123232
0.707515 0.144839 0.126223
0.721798 0.147829 0.129213
0.736599 0.150774 0.132219
0.7514 0.153719 0.135225
0.765042 0.15642 0.13785
0.778683 0.159121 0.140475
0.79324 0.161791 0.143114
0.807797 0.164462 0.145754
0.821042 0.166842 0.148562
0.834287 0.169223 0.151369
0.848096 0.171618 0.154421
0.861906 0.174014 0.157473
0.00903334 0.022446 1.5259e-05
0.011368 0.0204929 1.5259e-05
0.0137179 0.018555 0
0.0170596 0.0170443 3.0518e-05
0.0204166 0.0155337 4.57771e-05
0.0259556 0.0145571 0.000213626
0.0315099 0.0135958 0.000366217
0.0388952 0.0134127 0.000671397
0.0462959 0.0132448 0.000991836
0.0561532 0.0139467 0.0015259
0.0660258 0.0146639 0.00205997
0.0776379 0.0163272 0.00262455
0.08925 0.0179904 0.00320439
0.103853 0.0205539 0.00375372
0.118471 0.0231327 0.0043183
0.133684 0.0262608 0.00531014
0.148913 0.0293889 0.00631724
0.164279 0.0333715 0.00708019
0.17966 0.0373693 0.00784314
0.194934 0.0411231 0.00852979
0.210208 0.0448768 0.00921645
0.225544 0.0485084 0.0122072
0.240879 0.0521553 0.015198
0.256062 0.0555581 0.0188144
0.271244 0.0589761 0.0224308
0.28629 0.0625772 0.0260777
0.30135 0.0661784 0.0297398
0.316335 0.0695506 0.033051
0.331319 0.0729229 0.0363622
0.346563 0.0763409 0.0398871
0.361807 0.0797589 0.0434272
0.377279 0.0831311 0.0468299
0.392752 0.0865034 0.0502327
0.407736 0.0898299 0.0537118
0.422721 0.0931563 0.0572061
0.438041 0.0964065 0.0608225
0.453361 0.0996719 0.0644388
0.468482 0.102998 0.0684062
0.483619 0.106325 0.0723888
0.499123 0.109697 0.0763104
0.514611 0.113069 0.0802319
0.529656 0.116564 0.0841382
0.544701 0.120058 0.0880446
0.560006 0.12343 0.0918593
0.575311 0.126818 0.0956893
0.590112 0.130098 0.0993515
0.604898 0.133394 0.103029
0.619928 0.136568 0.106584
0.634943 0.139742 0.11014
0.65008 0.14284 0.113527
0.665217 0.145953 0.11693
0.680659 0.148989 0.120211
0.696101 0.152041 0.123491
0.710414 0.155032 0.126452
0.724727 0.158022 0.129427
0.739406 0.160952 0.132357
0.754086 0.163897 0.135302
0.767758 0.166629 0.137881
0.781415 0.16936 0.140475
0.795819 0.172045 0.143053
0.810208 0.174731 0.145632
0.823453 0.177142 0.148409
0.836683 0.179568 0.151186
0.850324 0.181979 0.154101
0.863966 0.184405 0.157031
0.0104982 0.0299687 3.0518e-05
0.0127718 0.0278782 1.5259e-05
0.0150454 0.0257877 0
0.0184787 0.0241703 4.57771e-05
0.021912 0.0225528 9.15541e-05
0.0275731 0.0216678 0.000320439
0.0332341 0.0207828 0.000549325
0.0406653 0.0206607 0.000946059
0.0480964 0.0205386 0.00134279
0.0581979 0.0213474 0.00195315
0.0682994 0.0221561 0.00256352
0.079881 0.0239872 0.00321965
0.0914626 0.0258183 0.00387579
0.106142 0.0284733 0.00445563
0.120821 0.0311284 0.00503548
0.135927 0.0344396 0.00613413
0.151034 0.0377508 0.00723278
0.166491 0.0416724 0.00787366
0.181949 0.045594 0.00851453
0.197223 0.0493019 0.00927749
0.212497 0.0530098 0.0100404
0.227848 0.0565042 0.0132296
0.243198 0.0599985 0.0164187
0.258381 0.0635538 0.0199588
0.273564 0.0671092 0.0234989
0.288624 0.0708324 0.027039
0.303685 0.0745556 0.0305791
0.318746 0.0781262 0.0339361
0.333806 0.0816968 0.0372931
0.349096 0.0851759 0.0408637
0.364385 0.0886549 0.0444343
0.379919 0.092134 0.0478676
0.395453 0.095613 0.0513008
0.410483 0.0989853 0.0547494
0.425513 0.102358 0.0581979
0.440955 0.105776 0.061799
0.456397 0.109194 0.0654002
0.471565 0.112596 0.0693523
0.486732 0.115999 0.0733043
0.502205 0.119402 0.0772412
0.517678 0.122805 0.081178
0.532738 0.126329 0.085008
0.547814 0.129854 0.088838
0.563088 0.133303 0.0926223
0.578363 0.136751 0.0964065
0.593179 0.140047 0.100069
0.607996 0.143343 0.103731
0.622934 0.146563 0.107149
0.637873 0.149783 0.110567
0.653025 0.152911 0.113954
0.668177 0.156039 0.117342
0.683574 0.159136 0.120546
0.69897 0.162234 0.123751
0.713314 0.165225 0.126696
0.727657 0.168215 0.129641
0.742214 0.171145 0.132509
0.756771 0.174075 0.135378
0.770459 0.176837 0.137926
0.784146 0.179599 0.140475
0.798383 0.1823 0.142992
0.812619 0.185 0.14551
0.825849 0.187457 0.148257
0.839078 0.189914 0.151003
0.852552 0.192355 0.153796
0.866026 0.194797 0.156588
0.0118868 0.0371099 0.000701915
0.0141146 0.0349279 0.000564584
0.0163577 0.0327459 0.000411994
0.0196689 0.0310369 0.000411994
0.0229953 0.0293278 0.000396735
0.0287633 0.0286107 0.000686656
0.0345312 0.0278935 0.000991836
0.0422675 0.0281529 0.00144961
0.0500191 0.0284276 0.00192264
0.060502 0.029572 0.00247196
0.0710002 0.0307164 0.00303655
0.082826 0.0326696 0.0037232
0.094667 0.0346227 0.00442512
0.109133 0.0373846 0.00517281
0.123598 0.0401465 0.0059205
0.138781 0.0434882 0.00698863
0.153979 0.0468299 0.00805676
0.16939 0.050782 0.00865187
0.184817 0.0547494 0.00923171
0.200168 0.0584573 0.0103456
0.215518 0.0621805 0.0114595
0.230884 0.0658427 0.0145876
0.246265 0.0695048 0.0177157
0.261433 0.073106 0.0211643
0.276616 0.0767071 0.0246128
0.291707 0.0804913 0.0280919
0.306813 0.0842756 0.0315862
0.321889 0.0879072 0.0349126
0.33698 0.0915541 0.0382544
0.352331 0.0951858 0.0419013
0.367681 0.0988174 0.0455482
0.383276 0.102312 0.0489052
0.398871 0.105806 0.0522774
0.413962 0.109316 0.0558328
0.429053 0.11284 0.0594034
0.444526 0.116304 0.0630045
0.460014 0.119783 0.0666056
0.475181 0.123247 0.0704662
0.490349 0.126726 0.074342
0.505837 0.13019 0.078172
0.521324 0.133669 0.0820172
0.536324 0.137163 0.0857099
0.551308 0.140673 0.0894026
0.566613 0.144152 0.0931258
0.581903 0.147646 0.0968643
0.596902 0.151034 0.100465
0.611887 0.154437 0.104082
0.626856 0.157656 0.107485
0.64181 0.160876 0.110887
0.656657 0.164019 0.114122
0.671489 0.167163 0.117357
0.6869 0.170275 0.120562
0.702296 0.173404 0.123766
0.716487 0.176455 0.126619
0.730678 0.179507 0.129488
0.745266 0.182467 0.132311
0.759838 0.185428 0.135149
0.773342 0.188342 0.137591
0.786847 0.191272 0.140032
0.801099 0.193988 0.14255
0.815335 0.196704 0.145068
0.828336 0.199176 0.147585
0.841321 0.201663 0.150103
0.854795 0.204135 0.15288
0.868269 0.206622 0.155657
0.0132753 0.0442512 0.00137331
0.0154726 0.0419776 0.00109865
0.0176699 0.039704 0.000823987
0.0208743 0.0379034 0.000762951
0.0240787 0.0361028 0.000701915
0.0299535 0.0355535 0.00106813
0.0358282 0.0350042 0.00143435
0.0438849 0.0356603 0.00196841
0.0519417 0.0363165 0.00250248
0.0628214 0.0377966 0.00300603
0.0737011 0.0392767 0.00350958
0.0857862 0.0413519 0.00424201
0.0978714 0.0434272 0.00497444
0.112123 0.0462959 0.00588998
0.126375 0.0491646 0.00680552
0.141649 0.0525368 0.00784314
0.156924 0.0559091 0.00888075
0.172305 0.0599069 0.00941482
0.187686 0.0639048 0.00994888
0.203113 0.067628 0.0114137
0.21854 0.0713512 0.0128786
0.233936 0.0751812 0.0159457
0.249332 0.0790112 0.0190127
0.2645 0.0826581 0.0223697
0.279667 0.086305 0.0257267
0.294804 0.0901503 0.02916
0.309941 0.0939956 0.0325933
0.325048 0.0977035 0.0359045
0.340154 0.101411 0.0392157
0.355566 0.105196 0.0429389
0.370977 0.10898 0.0466621
0.386633 0.11249 0.049958
0.402289 0.115999 0.053254
0.417441 0.119661 0.0569314
0.432593 0.123323 0.0606088
0.448112 0.126848 0.06421
0.46363 0.130373 0.0678111
0.478798 0.133913 0.0715953
0.493965 0.137453 0.0753796
0.509483 0.140993 0.079118
0.524987 0.144533 0.0828565
0.539895 0.148013 0.0864118
0.554803 0.151492 0.0899672
0.570123 0.155016 0.0936446
0.585443 0.158541 0.097322
0.60061 0.162036 0.100877
0.615778 0.16553 0.104433
0.630762 0.16875 0.10782
0.645747 0.171969 0.111208
0.660273 0.175128 0.11429
0.6748 0.178286 0.117372
0.690211 0.18143 0.120577
0.705623 0.184573 0.123781
0.719661 0.187686 0.126558
0.7337 0.190799 0.129335
0.748302 0.19379 0.132128
0.762905 0.19678 0.13492
0.776226 0.199863 0.137255
0.789548 0.202945 0.13959
0.8038 0.205676 0.142107
0.818051 0.208408 0.144625
0.830808 0.21091 0.146914
0.843565 0.213413 0.149203
0.857038 0.21593 0.151965
0.870512 0.218448 0.154726
0.0148623 0.0516823 0.00273136
0.0169833 0.0494087 0.00227359
0.0191196 0.0471504 0.00183108
0.0223392 0.0453803 0.00167849
0.0255741 0.0436255 0.00154116
0.0310979 0.0428779 0.00180056
0.0366217 0.0421302 0.00205997
0.0447852 0.0430304 0.002533
0.0529641 0.043946 0.00300603
0.0643473 0.0459754 0.00360113
0.0757305 0.0480049 0.00421149
0.0882429 0.0504768 0.00497444
0.100771 0.0529488 0.00573739
0.115297 0.0559701 0.00675975
0.129824 0.0589914 0.0077821
0.144869 0.0624552 0.00866712
0.159915 0.0659342 0.00955215
0.175463 0.0698558 0.0101167
0.191012 0.0737774 0.0106966
0.206409 0.0775921 0.0124819
0.22182 0.0814221 0.0142672
0.237278 0.0852827 0.0173037
0.25275 0.0891585 0.0203403
0.267948 0.0929274 0.0235294
0.283162 0.0966964 0.0267338
0.298299 0.100572 0.0301213
0.313451 0.104448 0.0335088
0.328603 0.108232 0.0368048
0.343771 0.112032 0.040116
0.359243 0.115801 0.0437781
0.374716 0.11957 0.0474403
0.390417 0.123217 0.050782
0.406134 0.126879 0.0541238
0.421317 0.130571 0.0577859
0.436515 0.134264 0.0614633
0.452079 0.13785 0.065095
0.467658 0.141451 0.0687266
0.482856 0.145068 0.0724498
0.498054 0.148684 0.076173
0.513542 0.152239 0.0798657
0.52903 0.15581 0.0835584
0.543969 0.159319 0.0870527
0.558892 0.162844 0.0905623
0.574105 0.166354 0.0940871
0.589319 0.169879 0.097612
0.604501 0.173358 0.101091
0.619669 0.176837 0.10457
0.634836 0.180133 0.107912
0.649989 0.183429 0.111254
0.664546 0.186618 0.114305
0.679088 0.189807 0.117372
0.694179 0.192966 0.120439
0.709255 0.196139 0.123507
0.723293 0.199252 0.126284
0.737316 0.202365 0.129061
0.751781 0.205417 0.131777
0.766232 0.208469 0.134508
0.779583 0.211536 0.136812
0.79292 0.214618 0.139132
0.806958 0.217517 0.141527
0.820981 0.220417 0.143938
0.833722 0.222934 0.146242
0.846448 0.225452 0.148547
0.859678 0.227985 0.15108
0.872892 0.230518 0.153628
0.0164492 0.0591135 0.00408942
0.0185092 0.0568551 0.0034638
0.0205692 0.0545968 0.00283818
0.0238193 0.0528725 0.00260929
0.0270695 0.0511482 0.00238041
0.0322423 0.0502022 0.002533
0.0374151 0.0492561 0.00268559
0.0457008 0.0504158 0.00309758
0.0539864 0.0515755 0.00350958
0.0658732 0.0541543 0.00421149
0.07776 0.056733 0.00491341
0.0907149 0.0596017 0.00570687
0.10367 0.0624704 0.00650034
0.118471 0.0656443 0.00762951
0.133272 0.0688182 0.00875868
0.148089 0.0723888 0.00949111
0.162905 0.0759594 0.0102235
0.178622 0.0798047 0.0108339
0.194339 0.08365 0.0114443
0.20972 0.0875715 0.01355
0.225101 0.0914931 0.0156558
0.240635 0.0953994 0.0186618
0.256168 0.0993057 0.0216678
0.271412 0.103197 0.0247044
0.286656 0.107088 0.0277409
0.301808 0.110994 0.0310826
0.31696 0.1149 0.0344244
0.332174 0.118776 0.0377203
0.347387 0.122652 0.0410163
0.362921 0.126406 0.0446174
0.378454 0.130159 0.0482185
0.394217 0.133959 0.051606
0.409979 0.137758 0.0549935
0.425208 0.141482 0.0586557
0.440436 0.145205 0.0623178
0.456062 0.148867 0.06598
0.471687 0.152529 0.0696422
0.486915 0.156222 0.0733043
0.502129 0.159915 0.0769665
0.517601 0.1635 0.0806134
0.533074 0.167086 0.0842603
0.548028 0.170642 0.0877089
0.562982 0.174197 0.0911574
0.578088 0.177707 0.0945296
0.593194 0.181216 0.0979019
0.608377 0.18468 0.101305
0.62356 0.188144 0.104707
0.638895 0.191516 0.108003
0.654231 0.194888 0.111299
0.668803 0.198108 0.114336
0.683375 0.201328 0.117372
0.698131 0.204517 0.120302
0.712886 0.207706 0.123232
0.726909 0.210819 0.126009
0.740932 0.213931 0.128786
0.755245 0.217044 0.131441
0.769558 0.220157 0.134096
0.782925 0.223224 0.136385
0.796292 0.226291 0.138674
0.810101 0.229358 0.140963
0.823911 0.232425 0.143252
0.836622 0.234958 0.145571
0.849332 0.237491 0.14789
0.862303 0.24004 0.15021
0.875273 0.242588 0.152529
0.0185092 0.067689 0.00611887
0.0206912 0.0655222 0.00518807
0.0228733 0.0633555 0.00425727
0.0261997 0.061738 0.00404364
0.0295262 0.0601358 0.00383001
0.0347143 0.0593423 0.00392157
0.0399023 0.0585489 0.00399786
0.0477302 0.0594797 0.0043946
0.0555734 0.0604257 0.00479133
0.0673228 0.0632029 0.00547799
0.0790723 0.0659953 0.0061799
0.092668 0.069337 0.00704967
0.106279 0.0726787 0.00791943
0.121218 0.0762036 0.00874342
0.136172 0.0797436 0.00956741
0.151369 0.0834363 0.0102846
0.166567 0.0871443 0.011017
0.182345 0.0910201 0.0119631
0.198138 0.0948959 0.0129244
0.213672 0.0988022 0.0151217
0.229206 0.102724 0.0173342
0.2448 0.106722 0.0202029
0.260395 0.110735 0.0230869
0.275715 0.114595 0.0259861
0.291035 0.118471 0.0289006
0.306447 0.122515 0.0323033
0.321874 0.126558 0.0357061
0.337133 0.130373 0.0388647
0.352407 0.134188 0.0420386
0.367788 0.138048 0.0455482
0.383185 0.141909 0.049073
0.398993 0.145663 0.0524605
0.414801 0.149416 0.055848
0.430045 0.153155 0.0594492
0.445289 0.156893 0.0630503
0.460929 0.160555 0.0666819
0.47657 0.164218 0.0703136
0.491691 0.16791 0.0739605
0.506813 0.171618 0.0776074
0.522316 0.175219 0.081178
0.537804 0.17882 0.0847486
0.552666 0.182391 0.0881361
0.567529 0.185962 0.0915389
0.582635 0.189456 0.0948501
0.597742 0.192966 0.0981765
0.612894 0.196643 0.101381
0.628046 0.200336 0.104601
0.643397 0.203708 0.10782
0.658732 0.20708 0.11104
0.673167 0.21033 0.113924
0.687602 0.213596 0.116823
0.702358 0.216785 0.119738
0.717113 0.219974 0.122652
0.730938 0.223056 0.125277
0.744762 0.226139 0.127901
0.759075 0.229252 0.130556
0.773388 0.232364 0.133211
0.78645 0.235264 0.135409
0.799512 0.238163 0.137606
0.813306 0.24123 0.139895
0.8271 0.244297 0.142184
0.839551 0.246799 0.144244
0.851987 0.249317 0.146319
0.864927 0.25185 0.148638
0.877852 0.254398 0.150973
0.0205692 0.0762646 0.00814832
0.0228733 0.0741894 0.00691234
0.0251774 0.0721141 0.00567636
0.0285801 0.0706188 0.00547799
0.0319829 0.0691234 0.00527962
0.0371862 0.0684825 0.00529488
0.0423896 0.0678416 0.00531014
0.0497749 0.0685588 0.00569162
0.0571603 0.069276 0.00607309
0.0687724 0.0722667 0.00675975
0.0803845 0.0752575 0.0074464
0.0946365 0.0790723 0.00839246
0.108888 0.082887 0.00933852
0.12398 0.0867781 0.00985733
0.139071 0.0906691 0.0103761
0.15465 0.0944991 0.0110933
0.17023 0.0983291 0.0118105
0.186084 0.102235 0.0131075
0.201938 0.106142 0.0144045
0.217624 0.110048 0.0167086
0.23331 0.113954 0.0190127
0.248966 0.118059 0.0217594
0.264622 0.122164 0.024506
0.280018 0.126009 0.0272831
0.295415 0.129854 0.0300603
0.311101 0.134035 0.0335241
0.326787 0.138216 0.0369879
0.342107 0.14197 0.0400244
0.357427 0.145724 0.043061
0.372671 0.149691 0.0464942
0.387915 0.153658 0.0499275
0.403769 0.157366 0.053315
0.419623 0.161074 0.0567025
0.434882 0.164828 0.0602426
0.450141 0.168582 0.0637827
0.465797 0.172244 0.0673838
0.481453 0.175906 0.070985
0.496468 0.179614 0.0746166
0.511498 0.183322 0.0782483
0.527016 0.186938 0.0817426
0.542535 0.190555 0.0852369
0.557305 0.194141 0.0885786
0.572076 0.197726 0.0919203
0.587182 0.201221 0.0951858
0.602289 0.204715 0.0984512
0.617411 0.208621 0.101472
0.632532 0.212528 0.104494
0.647883 0.2159 0.107637
0.663233 0.219272 0.11078
0.677531 0.222568 0.113527
0.691829 0.225864 0.116274
0.706584 0.229053 0.119173
0.72134 0.232242 0.122072
0.734966 0.235294 0.124544
0.748592 0.238346 0.127016
0.762905 0.241459 0.129671
0.777218 0.244572 0.132326
0.789975 0.247303 0.134432
0.802731 0.250034 0.136538
0.81651 0.253101 0.138827
0.830289 0.256168 0.141115
0.842466 0.258656 0.142931
0.854643 0.261143 0.144747
0.867536 0.263676 0.147082
0.88043 0.266209 0.149416
0.0229038 0.0853742 0.0104372
0.0252232 0.0835431 0.00920119
0.0275425 0.0817273 0.00796521
0.0311742 0.0804761 0.00767529
0.0348058 0.0792401 0.00740063
0.0400854 0.0787823 0.00735485
0.0453651 0.0783398 0.00732433
0.0522316 0.0789654 0.00773632
0.0591135 0.0796063 0.00816358
0.0704051 0.0824903 0.00872816
0.0817121 0.0853895 0.00929274
0.095964 0.0893263 0.00999466
0.110216 0.0932784 0.0106966
0.125933 0.0975204 0.0111391
0.141665 0.101778 0.0115816
0.157458 0.10573 0.0124056
0.173266 0.109697 0.0132296
0.189502 0.113725 0.0147555
0.205737 0.117754 0.0162814
0.2215 0.121645 0.0184176
0.237278 0.125551 0.0205539
0.253147 0.129641 0.0231479
0.269017 0.13373 0.025742
0.284535 0.137636 0.028397
0.300053 0.141543 0.0310674
0.315847 0.145663 0.0343786
0.33164 0.149798 0.037705
0.347234 0.153658 0.0408026
0.362829 0.157519 0.0439155
0.378134 0.16144 0.0472725
0.393454 0.165377 0.0506294
0.409186 0.1691 0.0540017
0.424918 0.172839 0.0573739
0.440208 0.176562 0.0608682
0.455497 0.180301 0.0643626
0.471122 0.183978 0.0678721
0.486748 0.187671 0.071397
0.501808 0.191348 0.0749676
0.516869 0.195026 0.0785382
0.53228 0.198642 0.0819867
0.547677 0.202274 0.0854505
0.562448 0.205814 0.0887312
0.577218 0.209369 0.0920119
0.592218 0.212863 0.095201
0.607217 0.216358 0.0984054
0.622354 0.220264 0.101366
0.637491 0.224186 0.104326
0.652811 0.227756 0.107286
0.668132 0.231342 0.110246
0.682429 0.234638 0.112947
0.696727 0.237949 0.115663
0.711345 0.241154 0.118395
0.725948 0.244358 0.121141
0.739559 0.24741 0.123598
0.75317 0.250462 0.12607
0.767269 0.253513 0.128603
0.781353 0.256565 0.131136
0.79411 0.259297 0.133242
0.806851 0.262043 0.135363
0.82031 0.264942 0.13756
0.833768 0.267857 0.139773
0.845914 0.270344 0.141588
0.858045 0.272831 0.14342
0.870649 0.275334 0.145541
0.883238 0.277852 0.147662
0.0252384 0.0944839 0.012726
0.0275731 0.0929122 0.01149
0.0299077 0.0913405 0.0102541
0.0337682 0.0903487 0.00988785
0.0376287 0.0893568 0.00952163
0.0429847 0.0890974 0.00943008
0.0483406 0.088838 0.00933852
0.0547036 0.0893873 0.00979629
0.0610666 0.0899367 0.0102541
0.0720531 0.0927291 0.0106966
0.0830396 0.0955215 0.0111391
0.0972915 0.0995956 0.0115969
0.111543 0.10367 0.0120546
0.127901 0.108278 0.0124208
0.144259 0.112886 0.0127871
0.160281 0.116976 0.0137179
0.176303 0.121065 0.0146487
0.19292 0.125216 0.0164034
0.209537 0.129366 0.0181582
0.225391 0.133257 0.0201267
0.241245 0.137148 0.0220951
0.257328 0.141222 0.0245365
0.273411 0.145296 0.026978
0.289052 0.149264 0.0295262
0.304692 0.153231 0.0320745
0.320592 0.157305 0.0352483
0.336492 0.161379 0.0384222
0.352361 0.165347 0.0415961
0.368231 0.169314 0.04477
0.383612 0.173205 0.0480507
0.398993 0.177096 0.0513313
0.414603 0.18085 0.0546883
0.430213 0.184604 0.0580453
0.445533 0.188312 0.0614939
0.460853 0.19202 0.0649424
0.476463 0.195727 0.0683757
0.492058 0.199435 0.071809
0.507149 0.203082 0.0753185
0.52224 0.206729 0.0788281
0.53753 0.210361 0.0822461
0.552819 0.213993 0.0856641
0.56759 0.217502 0.0888838
0.582361 0.221012 0.0921035
0.597253 0.224506 0.0952316
0.612146 0.228 0.0983597
0.627298 0.231922 0.101259
0.642451 0.235843 0.104158
0.65774 0.239628 0.106935
0.67303 0.243412 0.109712
0.687327 0.246723 0.112383
0.701625 0.250034 0.115053
0.716091 0.253254 0.117632
0.730556 0.256474 0.120211
0.744152 0.259525 0.122667
0.757748 0.262577 0.125124
0.771618 0.265568 0.127535
0.785489 0.268559 0.129946
0.79823 0.271305 0.132067
0.810971 0.274052 0.134188
0.824109 0.276799 0.136309
0.837247 0.279545 0.13843
0.849348 0.282032 0.140261
0.861448 0.28452 0.142092
0.873747 0.287007 0.143999
0.886046 0.289494 0.145907
0.0282139 0.104936 0.0159609
0.0308995 0.103563 0.0145876
0.0335851 0.102205 0.0132296
0.0375219 0.101457 0.0128328
0.041474 0.100725 0.0124361
0.0468605 0.100633 0.0122835
0.0522621 0.100542 0.0121462
0.0585641 0.101244 0.0124971
0.0648661 0.101961 0.0128481
0.0748302 0.10428 0.0131838
