assets/luts/Green1.cube
TITLE "Generated by Resolve"
LUT_3D_SIZE 65
0.0171511 0.0399786 0.0229648
0.018616 0.0401465 0.0232548
0.0200809 0.0403143 0.0235599
0.021561 0.040528 0.0238956
0.0230259 0.0407416 0.0242161
0.0245365 0.0409857 0.0245365
0.0260471 0.0412451 0.0248569
0.0279545 0.0415045 0.0251164
0.0298772 0.0417792 0.0253758
0.0317998 0.0420539 0.0256657
0.0337224 0.0423133 0.0259403
0.0369879 0.0428168 0.0264286
0.0402533 0.0433204 0.0269322
0.0453193 0.0441749 0.0274815
0.0504005 0.0450141 0.0280156
0.0560464 0.0460517 0.0285649
0.0617075 0.0470741 0.0291142
0.0677806 0.0478676 0.0294499
0.0738384 0.0486458 0.0297856
0.0803082 0.0492103 0.0299229
0.0867781 0.0497597 0.0300755
0.0969863 0.0507362 0.0301823
0.107195 0.0517128 0.0303044
0.121324 0.0530098 0.0307012
0.135454 0.0543069 0.0310979
0.150698 0.0562295 0.0319219
0.165927 0.0581369 0.0327459
0.181125 0.0604105 0.0339208
0.196307 0.0626841 0.0350958
0.211963 0.0654459 0.0365148
0.227634 0.0682078 0.0379339
0.24564 0.0714275 0.0394598
0.263645 0.0746471 0.041001
0.28603 0.0786297 0.0428168
0.308415 0.0826276 0.0446174
0.332967 0.0876326 0.0468605
0.357534 0.0926223 0.0491035
0.382239 0.0977188 0.051606
0.406928 0.102815 0.0541085
0.431235 0.108019 0.0565957
0.455528 0.113222 0.0590829
0.479118 0.118471 0.0613718
0.502708 0.123705 0.0636606
0.52433 0.129198 0.0658579
0.545953 0.134691 0.0680552
0.565835 0.139681 0.0700389
0.585702 0.144671 0.0720226
0.605447 0.150027 0.0739605
0.625208 0.155383 0.0758984
0.644831 0.160525 0.0779431
0.664454 0.165667 0.0799878
0.68368 0.170809 0.0818189
0.702922 0.175967 0.0836652
0.719417 0.180407 0.0852979
0.735912 0.184833 0.0869154
0.745769 0.18764 0.0878462
0.755627 0.190433 0.0887922
0.765301 0.193133 0.0897841
0.77499 0.195819 0.0907912
0.784619 0.198474 0.0918441
0.794247 0.201129 0.0928969
0.803464 0.203845 0.0937667
0.81268 0.206561 0.0946517
0.821714 0.209079 0.0954604
0.830762 0.211582 0.0962844
0.0180819 0.0426947 0.0233768
0.0196536 0.0429694 0.0236973
0.0212253 0.0432288 0.0240024
0.0227817 0.0434882 0.0243229
0.0243381 0.0437476 0.0246433
0.0260624 0.0440681 0.0249638
0.0277867 0.0443885 0.0252842
0.0298161 0.0447242 0.0255741
0.0318456 0.0450599 0.0258488
0.033875 0.0454108 0.0261387
0.0359197 0.0457618 0.0264286
0.0394598 0.0463569 0.0269017
0.0429999 0.0469673 0.0273899
0.0483558 0.0478828 0.027863
0.053727 0.0487984 0.0283513
0.0594949 0.0497902 0.028809
0.0652628 0.050782 0.0292668
0.0718242 0.0516823 0.0295567
0.0783703 0.0525978 0.0298314
0.0851148 0.0534066 0.0300145
0.0918593 0.0542 0.0301976
0.10251 0.0553902 0.0303349
0.113161 0.0565805 0.0304723
0.127718 0.0581369 0.0310369
0.14229 0.0597086 0.0316014
0.15761 0.0618143 0.0325322
0.172946 0.06392 0.033463
0.188281 0.0663462 0.0346838
0.203632 0.0687724 0.0359045
0.21944 0.0716259 0.0372931
0.235248 0.0744945 0.0386969
0.253361 0.0776684 0.040177
0.271473 0.0808423 0.0416724
0.293706 0.0847639 0.043534
0.315938 0.0886702 0.0454108
0.340154 0.0935378 0.0475624
0.36437 0.0983902 0.0497139
0.388678 0.103334 0.0521553
0.413001 0.108278 0.0545968
0.436942 0.113359 0.0569467
0.460883 0.118441 0.0593118
0.484123 0.123568 0.0615702
0.507362 0.128695 0.0638285
0.528649 0.133974 0.0659953
0.54992 0.139269 0.0681621
0.569497 0.144213 0.0700694
0.589075 0.149142 0.0719921
0.608515 0.154299 0.0739147
0.62797 0.159457 0.0758221
0.647303 0.164446 0.0778058
0.666621 0.169436 0.0797894
0.685603 0.174395 0.0816663
0.70457 0.179355 0.0835279
0.720851 0.183749 0.0851301
0.737133 0.188159 0.0867323
0.746868 0.19086 0.0876631
0.756603 0.193561 0.0885939
0.766247 0.196201 0.0896162
0.775876 0.19884 0.0906386
0.785412 0.20145 0.0916762
0.794934 0.204059 0.0927291
0.804089 0.206699 0.0935988
0.81323 0.209323 0.0944533
0.822187 0.211765 0.0952773
0.831128 0.214206 0.0961166
0.019028 0.0454108 0.0238041
0.0206912 0.0457771 0.0241245
0.0223545 0.0461585 0.024445
0.0240024 0.0464485 0.0247501
0.0256352 0.0467536 0.0250553
0.0275883 0.0471504 0.025391
0.0295262 0.0475319 0.0257267
0.0316625 0.0479438 0.0260166
0.0337987 0.0483558 0.0263218
0.0359503 0.0487678 0.0266117
0.038117 0.0491951 0.0269169
0.0419165 0.049897 0.0273747
0.0457313 0.0505989 0.0278325
0.0513924 0.0515908 0.0282597
0.0570535 0.0525978 0.028687
0.0629435 0.0535286 0.0290532
0.0688334 0.0544747 0.0294194
0.0758679 0.0555123 0.0296483
0.0829175 0.0565499 0.0298924
0.0899214 0.0575875 0.0301061
0.0969253 0.0586404 0.0303349
0.108019 0.0600443 0.0304875
0.119127 0.0614633 0.0306249
0.134127 0.0632792 0.0313726
0.149126 0.065095 0.032105
0.164538 0.0673991 0.0331426
0.17995 0.069688 0.034165
0.195453 0.0722667 0.0354467
0.210956 0.0748455 0.0367132
0.226917 0.077821 0.0380865
0.242863 0.0807813 0.0394446
0.261082 0.0839246 0.0408942
0.279301 0.0870527 0.0423438
0.301381 0.0908827 0.0442664
0.323476 0.0947127 0.0461891
0.347341 0.099443 0.0482643
0.371206 0.104173 0.0503395
0.395132 0.108949 0.0527047
0.419059 0.113741 0.0550698
0.442649 0.1187 0.0572976
0.466239 0.123659 0.0595407
0.489128 0.128664 0.0617685
0.512032 0.133684 0.0639963
0.532967 0.138766 0.0661326
0.553887 0.143847 0.0682689
0.573159 0.14873 0.0701152
0.592432 0.153613 0.0719615
0.611582 0.158572 0.0738537
0.630732 0.163516 0.075761
0.64976 0.168368 0.0776837
0.668788 0.173205 0.0795911
0.68751 0.177981 0.0814984
0.706218 0.182757 0.0833906
0.722286 0.187106 0.0849622
0.738354 0.19147 0.0865339
0.747967 0.19408 0.0874647
0.75758 0.196674 0.0883955
0.767178 0.199268 0.0894331
0.776776 0.201862 0.090486
0.786206 0.20444 0.0915236
0.795621 0.207004 0.0925612
0.804715 0.209552 0.0934157
0.813794 0.2121 0.0942702
0.822644 0.214466 0.0950942
0.831495 0.216831 0.0959335
0.0199741 0.048249 0.0242618
0.0217136 0.0486305 0.024567
0.0234684 0.049012 0.0248722
0.0252079 0.0494087 0.0251774
0.0269627 0.0497902 0.0254978
0.0290837 0.0502174 0.025803
0.03122 0.05066 0.0261234
0.033463 0.0511482 0.0264439
0.0357061 0.0516365 0.0267643
0.0379644 0.0521248 0.0270848
0.0402228 0.0526284 0.0273899
0.0444343 0.0534066 0.0277867
0.0486305 0.0541848 0.0281987
0.0542458 0.0551461 0.0285191
0.0598611 0.0560922 0.0288548
0.0663157 0.0572519 0.0291905
0.0727855 0.0584115 0.0295415
0.0800793 0.059617 0.0298619
0.0873884 0.0608072 0.0301823
0.0949264 0.0620279 0.0303655
0.102449 0.0632486 0.0305333
0.114046 0.0648661 0.030808
0.125628 0.0664836 0.0310674
0.140795 0.0686046 0.0319219
0.155962 0.0707256 0.0327764
0.171511 0.0731365 0.0338598
0.187076 0.0755474 0.0349584
0.202731 0.0782483 0.0362249
0.218387 0.0809644 0.0375067
0.234409 0.0838788 0.038819
0.250431 0.0867781 0.0401312
0.268727 0.0899062 0.0415961
0.287037 0.0930495 0.043061
0.308949 0.096849 0.0449836
0.330877 0.100664 0.0469062
0.354421 0.105257 0.0488746
0.377981 0.10985 0.0508431
0.401495 0.114504 0.0531319
0.42501 0.119142 0.0554208
0.44828 0.123919 0.0575875
0.47155 0.128695 0.0597543
0.494102 0.133608 0.0619516
0.51664 0.138521 0.0641642
0.537285 0.143496 0.0662699
0.557916 0.14847 0.0683909
0.576837 0.153246 0.070161
0.595758 0.158022 0.0719463
0.614618 0.162829 0.0738079
0.633478 0.167651 0.0756542
0.652262 0.172381 0.0775158
0.671046 0.177111 0.0793774
0.689494 0.181674 0.0813306
0.707958 0.186236 0.0832837
0.723781 0.190494 0.0848249
0.73962 0.194751 0.0863661
0.749172 0.197314 0.0872969
0.75874 0.199878 0.0882429
0.768231 0.202396 0.0892805
0.777737 0.204929 0.0903334
0.787091 0.207401 0.091371
0.796445 0.209888 0.0924086
0.805478 0.212345 0.0932631
0.814527 0.214801 0.0941176
0.823301 0.217166 0.0949569
0.832074 0.219532 0.0957961
0.0209049 0.0511025 0.0247044
0.0227359 0.0514992 0.0249943
0.024567 0.0518807 0.0252842
0.0264286 0.0523537 0.0256046
0.0282902 0.0528267 0.0259251
0.0305943 0.0532998 0.0262303
0.0328985 0.0537728 0.0265354
0.0352636 0.0543374 0.0268711
0.0376287 0.0549172 0.0272068
0.0399786 0.0554818 0.0275425
0.0423438 0.0560616 0.0278782
0.0469368 0.0569162 0.0282139
0.0515145 0.0577707 0.0285496
0.0570993 0.0586862 0.0287785
0.0626688 0.0596017 0.0290074
0.0697032 0.0609751 0.0293278
0.0767376 0.0623484 0.0296635
0.0842908 0.0637064 0.0300603
0.0918593 0.0650645 0.0304723
0.0999161 0.0664683 0.0306096
0.107973 0.0678721 0.0307317
0.120058 0.069688 0.0311284
0.132143 0.0715038 0.0315099
0.147478 0.07393 0.0324712
0.162814 0.0763409 0.0334325
0.1785 0.0788586 0.0345922
0.194186 0.0813916 0.0357519
0.209995 0.0842298 0.0370184
0.225803 0.0870832 0.0382849
0.241886 0.0899367 0.0395514
0.257984 0.0927749 0.0408331
0.276371 0.0959029 0.042298
0.294759 0.0990311 0.0437629
0.316518 0.102831 0.0457008
0.338262 0.10663 0.0476234
0.361517 0.111086 0.049485
0.384771 0.115541 0.0513466
0.407858 0.120043 0.0535592
0.430945 0.124559 0.0557717
0.45391 0.129152 0.0578775
0.47686 0.133745 0.059968
0.499062 0.138552 0.06215
0.521263 0.143359 0.064332
0.541604 0.148226 0.0664225
0.561959 0.153079 0.068513
0.580514 0.157748 0.070222
0.599084 0.162417 0.071931
0.617655 0.167102 0.0737469
0.63621 0.171786 0.0755627
0.654765 0.17641 0.0773632
0.673304 0.181033 0.0791638
0.691493 0.185367 0.0811627
0.709697 0.189715 0.0831617
0.725277 0.193881 0.0846723
0.740871 0.198047 0.086183
0.750378 0.200565 0.0871443
0.759884 0.203067 0.0880903
0.769284 0.205539 0.089128
0.778698 0.207996 0.0901656
0.787991 0.210376 0.0912184
0.797269 0.212757 0.0922713
0.806256 0.215137 0.0931258
0.815244 0.217517 0.0939651
0.823957 0.219867 0.0948196
0.832654 0.222232 0.0956588
0.0218509 0.0538796 0.0251316
0.0237736 0.0543374 0.0254063
0.0256962 0.0547951 0.0256962
0.0277104 0.0553292 0.0260014
0.0297246 0.0558633 0.0263218
0.032166 0.0564431 0.0266423
0.0346075 0.057023 0.0269627
0.0370642 0.0576638 0.0273136
0.0395056 0.05832 0.0276646
0.0419776 0.0589151 0.0280003
0.0444495 0.0595254 0.028336
0.0492103 0.0603342 0.0285496
0.0539864 0.0611582 0.028748
0.0597848 0.06215 0.0289464
0.0655833 0.0631418 0.0291447
0.0731212 0.0647898 0.0295415
0.0806592 0.0664378 0.0299382
0.0886244 0.0679789 0.0302892
0.0965896 0.0695354 0.0306554
0.105089 0.0710307 0.030808
0.113573 0.0725414 0.0309606
0.125948 0.0745861 0.0314794
0.138323 0.0766461 0.0319982
0.153826 0.0792096 0.0330358
0.169314 0.0817884 0.0340734
0.185183 0.0844892 0.0352636
0.201068 0.0871901 0.0364538
0.217014 0.0901045 0.0377661
0.232959 0.0930037 0.0390936
0.249271 0.0959335 0.0403449
0.265599 0.0988632 0.0415961
0.284108 0.102037 0.0430762
0.302617 0.105196 0.0445563
0.324163 0.108965 0.0464027
0.345708 0.112718 0.048249
0.368612 0.117037 0.0501106
0.391516 0.12134 0.051957
0.414328 0.125795 0.0540627
0.437156 0.130266 0.0561837
0.459724 0.134737 0.0582437
0.482292 0.139208 0.0603037
0.504143 0.143938 0.0624399
0.525994 0.148684 0.0645762
0.546044 0.153368 0.0665904
0.566094 0.158053 0.0686046
0.584375 0.16257 0.0703136
0.60267 0.167071 0.0720378
0.620935 0.171603 0.0738231
0.6392 0.176135 0.0756085
0.65745 0.180621 0.0773785
0.675685 0.185092 0.0791485
0.693599 0.189334 0.0810712
0.711513 0.193591 0.0830091
0.726909 0.197528 0.0845502
0.742321 0.20148 0.0860914
0.751766 0.203906 0.0870375
0.761212 0.206332 0.0879988
0.770489 0.208667 0.0890211
0.779767 0.211017 0.0900282
0.788968 0.213382 0.0910506
0.798169 0.215763 0.0920577
0.807065 0.218082 0.0929427
0.815976 0.220401 0.0938125
0.824628 0.22266 0.0946822
0.83328 0.224933 0.0955367
0.0227817 0.0566415 0.0255436
0.0248112 0.0571756 0.0258335
0.0268406 0.0576944 0.0261082
0.0289921 0.0582895 0.0264134
0.0311589 0.0588846 0.0267033
0.0337377 0.0595712 0.0270542
0.0363165 0.0602579 0.0274052
0.0388647 0.0609903 0.0277714
0.0413977 0.0617075 0.0281376
0.0439612 0.0623484 0.0284581
0.04654 0.0629892 0.0287938
0.0514992 0.0637675 0.0288853
0.0564584 0.0645457 0.0289616
0.0624704 0.0656291 0.0291295
0.0684825 0.0666972 0.0292821
0.0765393 0.0686046 0.0297551
0.084596 0.0705119 0.0302129
0.092958 0.0722515 0.030518
0.101335 0.073991 0.0308232
0.110246 0.0755932 0.0309911
0.119158 0.0772106 0.0311742
0.131838 0.0794842 0.0318303
0.144518 0.0817731 0.0324865
0.160159 0.0845045 0.0336004
0.175814 0.0872358 0.0347143
0.191867 0.0901198 0.035935
0.207935 0.0930037 0.0371557
0.224018 0.095964 0.038529
0.240101 0.0989242 0.0399023
0.256657 0.101946 0.0411383
0.273198 0.104952 0.0423743
0.291844 0.108156 0.0438544
0.310475 0.11136 0.0453498
0.331807 0.115084 0.0471199
0.35314 0.118822 0.0488899
0.375708 0.122972 0.050721
0.39826 0.127138 0.0525521
0.420813 0.131548 0.0545815
0.443366 0.135973 0.0565957
0.465537 0.140322 0.0586099
0.487709 0.144656 0.0606241
0.509224 0.14934 0.0627146
0.530739 0.154009 0.0648051
0.550484 0.158511 0.066743
0.57023 0.163027 0.0686809
0.588251 0.167376 0.0704204
0.606256 0.171725 0.0721447
0.624231 0.17612 0.0738994
0.642206 0.180499 0.075639
0.660136 0.184833 0.0773938
0.67808 0.189151 0.0791485
0.695705 0.193317 0.0809949
0.713329 0.197467 0.0828412
0.728542 0.20119 0.0844129
0.74377 0.204913 0.0859846
0.75314 0.207248 0.0869459
0.762524 0.209598 0.0879072
0.771679 0.21181 0.0888991
0.780835 0.214023 0.0898909
0.789944 0.216403 0.0908827
0.799054 0.218769 0.0918593
0.807889 0.221027 0.0927443
0.816709 0.223285 0.0936446
0.825315 0.225452 0.0945296
0.833906 0.227634 0.0954299
0.0237888 0.0595407 0.0259251
0.0259251 0.0601511 0.0261997
0.0280461 0.0607614 0.0264897
0.0303807 0.0614481 0.0267948
0.0327001 0.06215 0.0271153
0.0353552 0.0629282 0.0274815
0.0380102 0.0637217 0.0278477
0.0406195 0.0644541 0.0281987
0.0432441 0.0651865 0.0285496
0.046067 0.0658427 0.0288243
0.0488899 0.0664836 0.029099
0.0539559 0.0673991 0.0291905
0.0590372 0.0682994 0.0292973
0.0655222 0.0696117 0.0294957
0.0720073 0.0709239 0.0296941
0.079881 0.0728008 0.0300603
0.0877546 0.0746777 0.0304265
0.0967422 0.076524 0.0307012
0.10573 0.0783703 0.0309606
0.115038 0.0802014 0.0312352
0.124346 0.0820172 0.0315099
0.137469 0.0844587 0.0322423
0.150607 0.0869001 0.0329747
0.166506 0.0898146 0.034165
0.182422 0.0927291 0.0353552
0.198627 0.0956741 0.0366522
0.214832 0.0986191 0.0379339
0.231098 0.101656 0.0393072
0.247379 0.104692 0.0406806
0.264164 0.107774 0.0419013
0.280964 0.110857 0.043122
0.299596 0.114107 0.0445716
0.318227 0.117357 0.0460365
0.339361 0.121111 0.0477607
0.36051 0.124865 0.049485
0.382788 0.128923 0.0512856
0.405066 0.132967 0.0531014
0.427268 0.137224 0.0550851
0.449485 0.141482 0.0570535
0.47126 0.1458 0.0589914
0.493019 0.150134 0.0609293
0.514244 0.154726 0.062974
0.53547 0.159335 0.0650339
0.55491 0.163668 0.0669108
0.574334 0.168002 0.0688029
0.592081 0.172183 0.0705272
0.609827 0.176349 0.0722515
0.627512 0.18056 0.0739757
0.645197 0.184771 0.0756847
0.662837 0.188998 0.077409
0.680476 0.193225 0.079118
0.697826 0.197269 0.0809033
0.71516 0.201297 0.0826886
0.730175 0.204791 0.0842756
0.745205 0.208286 0.0858778
0.754513 0.210544 0.0868391
0.763836 0.212802 0.0878157
0.7729 0.214984 0.088777
0.781964 0.217166 0.0897536
0.790951 0.21944 0.0907149
0.799939 0.221714 0.0916915
0.808713 0.223911 0.0925917
0.817487 0.226093 0.093492
0.825986 0.228229 0.0943923
0.834501 0.230365 0.0952926
0.0247959 0.0624247 0.0263066
0.0270237 0.0631266 0.0265812
0.0292668 0.0638132 0.0268559
0.031754 0.0646067 0.0271916
0.0342565 0.0654002 0.0275273
0.0369879 0.0662852 0.0279088
0.039704 0.0671702 0.028275
0.0423896 0.0679179 0.0286259
0.0450752 0.0686656 0.0289769
0.0481575 0.0693217 0.0291905
0.0512398 0.0699931 0.0294041
0.0564279 0.0710155 0.0295109
0.0616007 0.0720531 0.029633
0.0685588 0.0736095 0.0298619
0.0755169 0.0751659 0.0300908
0.0832227 0.0770123 0.0303655
0.0909133 0.0788586 0.0306401
0.100511 0.0808118 0.030869
0.110124 0.0827497 0.0310979
0.119829 0.0847944 0.0314794
0.129519 0.0868391 0.0318456
0.143099 0.0894331 0.0326543
0.15668 0.0920272 0.0334478
0.172854 0.0951247 0.0347143
0.189014 0.0982071 0.035996
0.205371 0.101213 0.0373541
0.221729 0.104234 0.0387274
0.238193 0.107332 0.0401007
0.254643 0.110445 0.0414588
0.271687 0.113603 0.0426642
0.288731 0.116747 0.0438697
0.307347 0.120058 0.0452888
0.325978 0.123369 0.0467079
0.346929 0.127138 0.0483864
0.36788 0.130907 0.0500649
0.389883 0.134859 0.0518654
0.411872 0.138811 0.0536507
0.433738 0.142901 0.0555886
0.455589 0.147005 0.0575113
0.476967 0.151293 0.0593729
0.498344 0.155596 0.0612345
0.51928 0.160128 0.0632486
0.540215 0.16466 0.0652476
0.559319 0.168811 0.0670787
0.578424 0.172976 0.0689097
0.595911 0.176974 0.070634
0.613397 0.180987 0.0723583
0.630793 0.185016 0.074052
0.648203 0.189044 0.0757305
0.665537 0.193179 0.0774243
0.682887 0.197314 0.0791028
0.699931 0.201221 0.0808118
0.716976 0.205127 0.082536
0.731807 0.208392 0.0841535
0.746639 0.211673 0.085771
0.755886 0.21384 0.0867475
0.765148 0.216007 0.0877089
0.774121 0.218158 0.0886549
0.783093 0.220295 0.089601
0.791959 0.222477 0.0905623
0.800839 0.224643 0.0915236
0.809552 0.22678 0.0924239
0.818265 0.228916 0.0933394
0.826673 0.231022 0.094255
0.835081 0.233112 0.0951553
0.0258946 0.0654765 0.0266575
0.0282292 0.0662547 0.0269322
0.0305638 0.0670176 0.0272221
0.0331579 0.0678569 0.0275578
0.0357366 0.0686961 0.0278782
0.038529 0.0696269 0.0282597
0.0413214 0.0705577 0.0286259
0.0440833 0.071397 0.0289921
0.0468452 0.0722515 0.0293584
0.0501564 0.0729229 0.0295262
0.0534829 0.073579 0.0296941
0.0587625 0.0746777 0.0298314
0.0640574 0.0757916 0.029984
0.0712444 0.0774853 0.0301671
0.0784314 0.0791943 0.0303502
0.0865339 0.0811017 0.0305638
0.0946365 0.0830243 0.0307774
0.104646 0.0850996 0.0310826
0.114656 0.0871901 0.0313726
0.124926 0.0894636 0.0318303
0.13518 0.0917525 0.0323033
0.149081 0.0945449 0.0331884
0.162982 0.097322 0.0340734
0.179324 0.100481 0.0353857
0.195651 0.103624 0.0366979
0.212131 0.106767 0.0381323
0.228595 0.109911 0.0395514
0.245243 0.113115 0.0408789
0.261891 0.11632 0.0422217
0.279179 0.119493 0.0433661
0.296468 0.122667 0.0445258
0.315068 0.126085 0.0459602
0.333654 0.129488 0.0473945
0.354452 0.133227 0.0490578
0.37525 0.13695 0.050721
0.396933 0.140764 0.05243
0.418616 0.144579 0.0541543
0.440116 0.148638 0.0560464
0.461616 0.152697 0.0579385
0.482673 0.156985 0.0597238
0.503716 0.161273 0.0615091
0.524315 0.165621 0.0634775
0.5449 0.169986 0.0654459
0.563745 0.174014 0.0672465
0.582589 0.178058 0.0690471
0.599802 0.181872 0.0707408
0.617014 0.185687 0.0724498
0.634134 0.189578 0.0741131
0.65127 0.193454 0.0757763
0.668299 0.197421 0.0774243
0.685328 0.201389 0.0790875
0.702113 0.205158 0.080766
0.718898 0.208927 0.0824445
0.733532 0.21207 0.084062
0.74818 0.215198 0.0856641
0.757305 0.217273 0.0866255
0.76643 0.219348 0.087602
0.775311 0.221469 0.0885481
0.784207 0.22359 0.0894942
0.792981 0.225681 0.0904402
0.80177 0.227756 0.0913863
0.810422 0.229862 0.0923018
0.819074 0.231952 0.0932174
0.827405 0.233982 0.0941329
0.835752 0.235996 0.0950484
0.026978 0.0685283 0.0270085
0.0294194 0.0693828 0.0272984
0.0318456 0.070222 0.0275731
0.0345464 0.071107 0.0279088
0.037232 0.0719921 0.0282444
0.0400854 0.0729686 0.0286107
0.0429541 0.07393 0.0289921
0.0457771 0.0748913 0.0293584
0.0486152 0.0758373 0.0297246
0.0521553 0.0765087 0.0298619
0.0557107 0.0771801 0.029984
0.0611124 0.0783551 0.0301518
0.0664988 0.0795148 0.0303197
0.07393 0.0813764 0.0304723
0.0813611 0.0832227 0.0306096
0.0898604 0.0852064 0.0307622
0.0983597 0.0871901 0.03093
0.108782 0.0894026 0.031281
0.119203 0.0916152 0.031632
0.130022 0.0941482 0.0321965
0.140826 0.0966659 0.0327459
0.155062 0.0996414 0.0337224
0.169284 0.102617 0.034699
0.185794 0.105837 0.0360571
0.202289 0.109041 0.0373999
0.218875 0.112322 0.0388952
0.235477 0.115602 0.0403754
0.252293 0.118883 0.0416724
0.269123 0.122179 0.0429694
0.286656 0.125383 0.0440833
0.304204 0.128573 0.045182
0.322774 0.132097 0.0466316
0.341344 0.135622 0.0480812
0.361975 0.1393 0.0497292
0.38262 0.142992 0.0513619
0.403983 0.14667 0.0530098
0.425345 0.150347 0.0546578
0.446494 0.154376 0.0565194
0.467658 0.158404 0.0583658
0.48838 0.162676 0.0600748
0.509102 0.166949 0.0617838
0.529351 0.17113 0.0637217
0.549599 0.175296 0.0656443
0.56817 0.179232 0.0674144
0.58674 0.183154 0.0691844
0.603677 0.18677 0.0708629
0.62063 0.190402 0.0725414
0.637476 0.194141 0.0741894
0.654337 0.197864 0.0758221
0.671046 0.201678 0.0774395
0.687755 0.205478 0.079057
0.70428 0.20911 0.0807202
0.720806 0.212726 0.0823682
0.735271 0.215732 0.0839551
0.749722 0.218723 0.0855573
0.758709 0.220706 0.0865187
0.767697 0.222705 0.08748
0.776501 0.224796 0.088426
0.785306 0.226886 0.0893721
0.794003 0.228885 0.0903182
0.802701 0.230884 0.091249
0.811292 0.232944 0.0921798
0.819883 0.235004 0.0930953
0.828153 0.236942 0.0940108
0.836408 0.238895 0.0949416
0.029099 0.0751812 0.0276036
0.0316014 0.0760662 0.0279088
0.0341192 0.0769665 0.0282139
0.0368963 0.0779278 0.0285649
0.0396735 0.0789044 0.0289158
0.0425116 0.0798657 0.0292973
0.0453498 0.080827 0.0296635
0.0483406 0.0818036 0.0300298
0.0513313 0.0827802 0.0303807
0.0548867 0.0834821 0.0305486
0.0584573 0.084184 0.0307317
0.0640269 0.0855573 0.03093
0.0695811 0.0869459 0.0311437
0.0768292 0.0887312 0.0312352
0.084062 0.0905165 0.031342
0.0931868 0.0926833 0.0315404
0.102312 0.0948348 0.031754
0.112917 0.0971389 0.0321202
0.123522 0.099443 0.0324865
0.13492 0.102144 0.0330663
0.146319 0.104829 0.0336309
0.160845 0.107973 0.0345922
0.175387 0.111101 0.0355688
0.192248 0.114412 0.0368811
0.20911 0.117739 0.0382086
0.226017 0.121126 0.0397803
0.242924 0.124514 0.0413672
0.260136 0.127825 0.0426642
0.277348 0.131136 0.0439765
0.295003 0.134401 0.0451667
0.312657 0.137682 0.0463569
0.33135 0.141222 0.0478218
0.350042 0.144747 0.0493019
0.37052 0.148302 0.0508125
0.390982 0.151873 0.0523079
0.412009 0.155612 0.0539406
0.433021 0.15935 0.0555886
0.453864 0.163333 0.0572976
0.474723 0.1673 0.0590219
0.495171 0.171481 0.0607156
0.515633 0.175677 0.0624247
0.535607 0.179751 0.064271
0.555581 0.183841 0.0661326
0.573922 0.187686 0.0678264
0.592264 0.191516 0.0695354
0.608865 0.195026 0.0711528
0.625452 0.19852 0.0727855
0.642084 0.202014 0.0744335
0.658717 0.205493 0.0760662
0.675166 0.209125 0.0776379
0.69163 0.212757 0.0792096
0.707912 0.216251 0.0808423
0.724193 0.21976 0.082475
0.738369 0.222751 0.0840162
0.752544 0.225742 0.0855573
0.761425 0.227726 0.0865492
0.770306 0.229694 0.087541
0.778988 0.231724 0.0884871
0.787686 0.233738 0.0894331
0.796307 0.235706 0.0903487
0.804929 0.237659 0.0912642
0.813428 0.239597 0.0921492
0.821927 0.241535 0.0930495
0.830076 0.243427 0.0939651
0.838239 0.245304 0.0948806
0.03122 0.0818189 0.0281987
0.0337987 0.0827649 0.0285191
0.0363775 0.083711 0.0288396
0.0392462 0.0847639 0.029221
0.0421149 0.0858015 0.0295872
0.0449378 0.0867628 0.0299687
0.0477455 0.0877241 0.0303502
0.0509041 0.0887312 0.0306859
0.0540475 0.0897383 0.0310216
0.0576333 0.0904555 0.0312505
0.0612039 0.0911879 0.0314641
0.0669413 0.0927749 0.0317235
0.0726635 0.094377 0.0319677
0.0797131 0.0960861 0.0320134
0.0867628 0.0978103 0.0320592
0.0965133 0.100145 0.0323339
0.106249 0.10248 0.0325933
0.117052 0.104891 0.0329747
0.12784 0.107286 0.033341
0.139818 0.11014 0.0339361
0.151797 0.112993 0.0345159
0.166644 0.116289 0.0354772
0.181476 0.1196 0.0364233
0.198703 0.123003 0.0377203
0.215915 0.126421 0.0390173
0.233143 0.129915 0.0406806
0.250385 0.13341 0.0423438
0.267979 0.136751 0.0436713
0.285588 0.140078 0.0449836
0.303349 0.143435 0.0462501
0.321096 0.146792 0.0475166
0.339925 0.150332 0.049012
0.35874 0.153872 0.0505226
0.379049 0.157305 0.0518807
0.399359 0.160739 0.053254
0.420035 0.164553 0.0548867
0.440696 0.168368 0.0565042
0.461234 0.17229 0.0580911
0.481788 0.176196 0.0596628
0.501976 0.180301 0.0613565
0.522164 0.18439 0.0630503
0.541878 0.188388 0.0648356
0.561578 0.192386 0.0666209
0.579675 0.196139 0.0682536
0.597787 0.199893 0.0698711
0.614038 0.203265 0.071458
0.630289 0.206638 0.0730297
0.646693 0.209888 0.0746777
0.663096 0.213123 0.0763104
0.679301 0.216587 0.0778363
0.695491 0.220035 0.0793469
0.711528 0.223407 0.0809644
0.727565 0.22678 0.0825818
0.741466 0.22977 0.084062
0.755367 0.232746 0.0855573
0.764126 0.23473 0.0865797
0.7729 0.236698 0.087602
0.781476 0.238651 0.0885328
0.790051 0.240604 0.0894789
0.798611 0.242512 0.0903792
0.807157 0.244434 0.0912795
0.815564 0.24625 0.092134
0.823957 0.248081 0.0929885
0.832013 0.249897 0.0939193
