assets/luts/Green2.cube
TITLE "Generated by Resolve"
LUT_3D_SIZE 5
0.00424201 0 0
0.142977 0.00466926 0.00360113
0.385382 0.0608225 0.0466926
0.626734 0.111879 0.1084
0.857908 0.15552 0.157931
0.0379034 0.138491 0.0262455
0.185733 0.168093 0.0268254
0.456184 0.234073 0.0603342
0.695491 0.290196 0.106325
0.900145 0.335973 0.137606
0.125307 0.369482 0.129122
0.251225 0.38172 0.137758
0.492119 0.460853 0.109804
0.793484 0.499718 0.0803235
0.969207 0.527398 0.0830091
0.20206 0.605035 0.279179
0.307225 0.617517 0.299657
0.436439 0.68481 0.313542
0.663966 0.715663 0.229038
0.943267 0.747433 0.123598
0.287633 0.838834 0.490669
0.339788 0.852567 0.512078
0.483589 0.871 0.519097
0.635584 0.885283 0.422309
0.768215 0.866606 0.311955
0.00674449 0.0189822 0.0440681
0.147341 0.0302434 0.149477
0.392157 0.0816052 0.236667
0.618952 0.130373 0.300847
0.849454 0.171939 0.351995
0.0366827 0.146395 0.119203
0.155673 0.204807 0.200809
0.455787 0.268986 0.271489
0.690883 0.316991 0.312688
0.906981 0.359564 0.347906
0.149477 0.429236 0.301671
0.239872 0.440467 0.320348
0.502831 0.494163 0.313024
0.795865 0.51603 0.274174
0.971618 0.53994 0.2804
0.238773 0.649378 0.438422
0.32517 0.6589 0.456825
0.474098 0.710994 0.493751
0.69015 0.74548 0.423072
0.961883 0.764401 0.317754
0.317754 0.842527 0.583337
0.38645 0.870085 0.620874
0.532677 0.888792 0.650111
0.682033 0.906004 0.598016
0.82797 0.897429 0.517937
0.0366217 0.0796216 0.220249
0.133944 0.0958267 0.317449
0.403998 0.115023 0.408423
0.618677 0.153048 0.484718
0.835782 0.19266 0.53283
0.037171 0.190707 0.253086
0.118471 0.235325 0.298405
0.413397 0.310399 0.466773
0.660029 0.354742 0.539055
0.889433 0.387793 0.569696
0.115328 0.391272 0.328588
0.138888 0.440192 0.374945
0.39765 0.555779 0.521157
0.747951 0.570825 0.568048
0.95758 0.586816 0.564294
0.211246 0.63183 0.511223
0.238956 0.674037 0.550225
0.477607 0.749294 0.636896
0.730159 0.78436 0.64596
0.984771 0.790799 0.550408
0.33106 0.827268 0.642329
0.388586 0.859831 0.680049
0.561486 0.897154 0.732845
0.745418 0.922545 0.751583
0.891234 0.919768 0.708247
0.0790112 0.14435 0.376287
0.12726 0.15787 0.43122
0.399817 0.159243 0.547601
0.623804 0.184054 0.61178
0.842313 0.206241 0.668544
0.0787976 0.256291 0.388556
0.142214 0.295048 0.427802
0.373754 0.364385 0.563195
0.649256 0.381781 0.665064
0.883024 0.415747 0.718166
0.0835279 0.432166 0.49984
0.173526 0.461494 0.53286
0.313787 0.538048 0.563531
0.667506 0.622095 0.728237
0.928771 0.646326 0.777584
0.186404 0.610071 0.5205
0.203616 0.647883 0.555261
0.260533 0.70489 0.614404
0.694057 0.818326 0.774838
0.960113 0.829496 0.815
0.266545 0.791775 0.66183
0.283146 0.824094 0.692744
0.38883 0.864469 0.73846
0.759152 0.922271 0.830655
0.934752 0.923674 0.839017
0.114473 0.205447 0.505943
0.144411 0.214664 0.545342
0.361608 0.228855 0.658351
0.609583 0.236027 0.716945
0.833402 0.247929 0.763027
0.119173 0.324987 0.506477
0.172213 0.360113 0.541527
0.313664 0.408209 0.613306
0.6336 0.430732 0.755428
0.872892 0.447028 0.799588
0.118135 0.480781 0.608667
0.198764 0.51284 0.624445
0.324041 0.568231 0.631739
0.619501 0.653529 0.767208
0.918883 0.658534 0.844114
0.145296 0.647822 0.72018
0.241093 0.668177 0.750698
0.361669 0.695186 0.782132
0.599786 0.798795 0.780636
0.948363 0.841794 0.882292
0.249577 0.779477 0.670466
0.264164 0.80853 0.698482
0.296757 0.84625 0.737148
0.580774 0.900694 0.814878
0.982269 0.940063 0.905791
