assets/luts/Green2.cube
TITLE "Generated by Resolve"
LUT_3D_SIZE 9
0.00424201 0 0
0.0401617 0 0
0.142977 0.00466926 0.00360113
0.264805 0.0342412 0.019379
0.385382 0.0608225 0.0466926
0.506188 0.086244 0.0773022
0.626734 0.111879 0.1084
0.746456 0.135653 0.134737
0.857908 0.15552 0.157931
0.0164492 0.0591135 0.00408942
0.0539864 0.0515755 0.00350958
0.162905 0.0759594 0.0102235
0.286656 0.107088 0.0277409
0.409979 0.137758 0.0549935
0.533074 0.167086 0.0842603
0.654231 0.194888 0.111299
0.769558 0.220157 0.134096
0.875273 0.242588 0.152529
0.0379034 0.138491 0.0262455
0.0773938 0.139803 0.0230106
0.185733 0.168093 0.0268254
0.325353 0.203098 0.0375372
0.456184 0.234073 0.0603342
0.578241 0.263737 0.0849622
0.695491 0.290196 0.106325
0.803983 0.315129 0.123781
0.900145 0.335973 0.137606
0.081178 0.249668 0.0675669
0.122072 0.251225 0.0669566
0.205173 0.268772 0.073518
0.353582 0.312566 0.0655222
0.507958 0.344945 0.0656748
0.637018 0.367834 0.0782483
0.750057 0.388983 0.092958
0.849058 0.410071 0.103761
0.934661 0.427955 0.111452
0.125307 0.369482 0.129122
0.174777 0.370214 0.129519
0.251225 0.38172 0.137758
0.338659 0.419104 0.138155
0.492119 0.460853 0.109804
0.6589 0.483207 0.0859998
0.793484 0.499718 0.0803235
0.892302 0.515435 0.0807202
0.969207 0.527398 0.0830091
0.16614 0.487129 0.199283
0.215702 0.489693 0.202243
0.287419 0.4963 0.209659
0.349096 0.52871 0.222019
0.42063 0.567346 0.222629
0.589929 0.596246 0.168215
0.77145 0.615534 0.112428
0.893889 0.628504 0.0880446
0.982422 0.636957 0.0759899
0.20206 0.605035 0.279179
0.240482 0.609796 0.287388
0.307225 0.617517 0.299657
0.372198 0.644099 0.316014
0.436439 0.68481 0.313542
0.520333 0.700282 0.285924
0.663966 0.715663 0.229038
0.823484 0.735256 0.1626
0.943267 0.747433 0.123598
0.241825 0.72723 0.381781
0.2645 0.736843 0.396612
0.318029 0.745876 0.412207
0.387396 0.7626 0.427649
0.456153 0.788449 0.423102
0.536156 0.8038 0.379278
0.6206 0.803891 0.330846
0.712154 0.805386 0.287755
0.844633 0.825528 0.22858
0.287633 0.838834 0.490669
0.301305 0.847044 0.502556
0.339788 0.852567 0.512078
0.407324 0.858701 0.520989
0.483589 0.871 0.519097
0.558343 0.884611 0.484199
0.635584 0.885283 0.422309
0.701869 0.873228 0.350103
0.768215 0.866606 0.311955
0.00463874 0.000427253 0.00280766
0.0407111 0.00299077 0.0290837
0.143008 0.0125734 0.0715648
0.267002 0.0422065 0.109102
0.387396 0.0691539 0.141238
0.507713 0.0957656 0.174746
0.626001 0.120699 0.207706
0.745022 0.144564 0.235752
0.858396 0.163821 0.258732
0.0135195 0.0542611 0.0317693
0.0519112 0.0625925 0.0569162
0.16202 0.0867933 0.0971389
0.291386 0.119142 0.127626
0.415778 0.149996 0.15555
0.537682 0.179232 0.184085
0.657069 0.206241 0.214176
0.773831 0.232914 0.238834
0.881651 0.253269 0.258274
0.0416571 0.147951 0.0824903
0.07953 0.160311 0.0997635
0.188083 0.186923 0.122011
0.333104 0.21915 0.136568
0.46125 0.248325 0.1579
0.58117 0.276188 0.181125
0.697444 0.301915 0.206027
0.807279 0.326085 0.225772
0.905852 0.346258 0.241245
0.0909133 0.275853 0.153384
0.125216 0.280125 0.157778
0.203525 0.291356 0.170596
0.359991 0.329839 0.161349
0.512932 0.357519 0.157748
0.638148 0.377569 0.171237
0.750027 0.397436 0.187289
0.850828 0.41825 0.200717
0.938415 0.436255 0.210391
0.138247 0.401556 0.223301
0.178775 0.400061 0.223392
0.254459 0.406104 0.229679
0.344793 0.437354 0.235325
0.499153 0.475105 0.205631
0.663325 0.492882 0.179324
0.795865 0.505669 0.172793
0.894163 0.519951 0.174533
0.971252 0.531914 0.178439
0.178347 0.514733 0.286687
0.220554 0.513268 0.286809
0.29279 0.517433 0.293004
0.362219 0.545007 0.30811
0.434394 0.583764 0.31397
0.597559 0.610132 0.262638
0.778408 0.624262 0.206943
0.899443 0.633875 0.181796
0.985595 0.64126 0.170565
0.212833 0.622431 0.355047
0.247196 0.626642 0.362127
0.314672 0.63534 0.376532
0.385779 0.657954 0.396399
0.450904 0.697627 0.401312
0.533745 0.716793 0.376593
0.676905 0.729793 0.321599
0.83447 0.74493 0.255222
0.951202 0.754818 0.217716
0.252079 0.735286 0.443702
0.277745 0.747158 0.46006
0.335149 0.760586 0.481392
0.408392 0.77615 0.500526
0.477211 0.798978 0.502937
0.552636 0.816526 0.467872
0.637964 0.818448 0.420508
0.732418 0.819394 0.380011
0.862699 0.836973 0.326146
0.299443 0.843198 0.543511
0.317296 0.854582 0.558251
0.361608 0.864561 0.573968
0.432258 0.871183 0.58648
0.506661 0.879698 0.586938
0.579797 0.892302 0.559472
0.655207 0.896696 0.508659
0.722988 0.887602 0.441932
0.794156 0.881895 0.407782
0.00674449 0.0189822 0.0440681
0.0423896 0.0272526 0.094789
0.147341 0.0302434 0.149477
0.272404 0.0550546 0.198672
0.392157 0.0816052 0.236667
0.507439 0.106996 0.27042
0.618952 0.130373 0.300847
0.73492 0.153384 0.328679
0.849454 0.171939 0.351995
0.0105592 0.0657664 0.0811475
0.0470893 0.082002 0.114565
0.147189 0.100069 0.173007
0.283696 0.130404 0.224826
0.414313 0.162081 0.259373
0.533715 0.190005 0.286931
0.649561 0.215946 0.314031
0.766537 0.242679 0.339178
0.877745 0.262211 0.358801
0.0366827 0.146395 0.119203
0.0647593 0.171908 0.149722
0.155673 0.204807 0.200809
0.316411 0.237125 0.245151
0.455787 0.268986 0.271489
0.575341 0.2934 0.292058
0.690883 0.316991 0.312688
0.803922 0.340002 0.332219
0.906981 0.359564 0.347906
0.0874952 0.278264 0.204074
0.113313 0.304814 0.228061
0.183017 0.321965 0.253849
0.344793 0.351965 0.270848
0.514076 0.376043 0.268223
0.63357 0.393591 0.278996
0.744381 0.4112 0.292302
0.848295 0.430732 0.305425
0.938903 0.448371 0.31635
0.149477 0.429236 0.301671
0.175509 0.435706 0.310399
0.239872 0.440467 0.320348
0.333288 0.461097 0.340826
0.502831 0.494163 0.313024
0.667048 0.507362 0.283207
0.795865 0.51603 0.274174
0.893492 0.528008 0.275425
0.971618 0.53994 0.2804
0.198489 0.546136 0.3729
0.228122 0.547845 0.377539
0.289036 0.548791 0.38349
0.367529 0.566461 0.399847
0.448249 0.603143 0.416052
0.603784 0.626917 0.368963
0.785977 0.635676 0.30692
0.905882 0.641321 0.279026
0.989258 0.647364 0.268498
0.238773 0.649378 0.438422
0.265904 0.653193 0.44477
0.32517 0.6589 0.456825
0.401434 0.675074 0.477378
0.474098 0.710994 0.493751
0.553368 0.733639 0.477455
0.69015 0.74548 0.423072
0.847868 0.756802 0.352941
0.961883 0.764401 0.317754
0.278264 0.750607 0.509789
0.302251 0.760006 0.521324
0.35642 0.77258 0.540825
0.430549 0.788602 0.56408
0.503532 0.809323 0.578363
0.577691 0.828122 0.559014
0.659388 0.833585 0.518318
0.754696 0.835386 0.481239
0.883726 0.851499 0.433906
0.317754 0.842527 0.583337
0.339178 0.855955 0.600702
0.38645 0.870085 0.620874
0.456825 0.88101 0.64007
0.532677 0.888792 0.650111
0.606622 0.899229 0.635279
0.682033 0.906004 0.598016
0.753506 0.901427 0.543542
0.82797 0.897429 0.517937
0.0167849 0.0486763 0.128847
0.0521248 0.0546273 0.172396
0.148226 0.0557565 0.229892
0.277653 0.0714427 0.280888
0.396002 0.0962234 0.327367
0.507012 0.119295 0.365148
0.616876 0.141085 0.395819
0.727749 0.162692 0.420966
0.840879 0.181247 0.442329
0.0201724 0.0895705 0.146334
0.0528267 0.105104 0.179507
0.135409 0.127169 0.239475
0.276219 0.145998 0.303746
0.406836 0.177066 0.355261
0.52694 0.201175 0.388495
0.642084 0.226078 0.415869
0.756436 0.248966 0.438392
0.868315 0.268009 0.455879
0.027924 0.167269 0.187289
0.0634775 0.187381 0.213718
0.121431 0.218326 0.245518
0.266331 0.261357 0.325719
0.423682 0.293431 0.389197
0.557153 0.316075 0.415167
0.676509 0.336461 0.433387
0.793362 0.357031 0.449287
0.900511 0.374945 0.462654
0.0764172 0.267643 0.222202
0.0893568 0.29102 0.24445
0.122591 0.32639 0.281956
0.272465 0.381353 0.358465
0.471656 0.404608 0.403113
0.608209 0.422492 0.42121
0.728664 0.437446 0.42884
0.840055 0.454078 0.436835
0.935332 0.469673 0.44535
0.129397 0.405249 0.320256
0.140139 0.429755 0.343328
0.170565 0.461372 0.375921
0.291752 0.497368 0.42121
0.482551 0.519585 0.438117
0.661555 0.528405 0.413794
0.789151 0.535332 0.403143
0.888884 0.545403 0.403204
0.969696 0.556481 0.407965
0.185306 0.539757 0.418372
0.200259 0.564141 0.442573
0.254917 0.587915 0.465766
0.353368 0.60119 0.487495
0.463661 0.62771 0.516732
0.611017 0.64831 0.490608
0.794644 0.651728 0.424842
0.91281 0.653223 0.395544
0.99295 0.657557 0.384985
0.241917 0.654078 0.497505
0.267582 0.676387 0.513878
0.322759 0.689387 0.531518
0.405371 0.70071 0.55053
0.496345 0.727138 0.575341
0.581567 0.752255 0.58056
0.710781 0.764096 0.536522
0.868864 0.772213 0.463203
0.975799 0.77673 0.430854
0.293278 0.752194 0.557305
0.318639 0.77084 0.575036
0.371008 0.787167 0.595056
0.444373 0.800412 0.617121
0.526696 0.819638 0.640955
0.607324 0.839323 0.643854
0.690059 0.848264 0.619501
0.786679 0.852811 0.589441
0.910765 0.868955 0.545708
0.336156 0.837369 0.618738
0.354955 0.852934 0.632807
0.399023 0.867185 0.652552
0.469062 0.881743 0.676448
0.553979 0.895323 0.699367
0.635462 0.906828 0.704189
0.714168 0.914916 0.682765
0.790524 0.913207 0.643458
0.862699 0.911742 0.62295
0.0366217 0.0796216 0.220249
0.0623484 0.0859388 0.253086
0.133944 0.0958267 0.317449
0.275639 0.0934157 0.359655
0.403998 0.115023 0.408423
0.515145 0.132815 0.449409
0.618677 0.153048 0.484718
0.725093 0.173159 0.512749
0.835782 0.19266 0.53283
0.0360418 0.118654 0.221805
0.0632639 0.133974 0.251652
0.118776 0.155093 0.296696
0.267826 0.170138 0.374853
0.412604 0.193606 0.434791
0.529809 0.218051 0.475715
0.638056 0.237461 0.50985
0.751247 0.255436 0.533654
0.861479 0.272465 0.54995
0.037171 0.190707 0.253086
0.0714427 0.209293 0.273442
0.118471 0.235325 0.298405
0.251041 0.288334 0.381933
0.413397 0.310399 0.466773
0.542504 0.334752 0.512428
0.660029 0.354742 0.539055
0.780758 0.372259 0.556512
0.889433 0.387793 0.569696
0.0579232 0.28629 0.290196
0.087892 0.305699 0.313237
0.134432 0.329137 0.345129
0.224826 0.383368 0.39411
0.399451 0.438697 0.489326
0.553613 0.458534 0.551995
0.692164 0.472328 0.570031
0.819791 0.4851 0.575891
0.92163 0.497368 0.581262
0.115328 0.391272 0.328588
0.123995 0.413947 0.349584
0.138888 0.440192 0.374945
0.185946 0.486549 0.423072
0.39765 0.555779 0.521157
0.605463 0.561791 0.55935
0.747951 0.570825 0.568048
0.867277 0.578729 0.564813
0.95758 0.586816 0.564294
0.16202 0.515862 0.424079
0.1691 0.536583 0.44303
0.180758 0.559655 0.464637
0.226627 0.597589 0.50312
0.422339 0.658686 0.57821
0.602136 0.673152 0.59881
0.789578 0.670771 0.556878
0.90692 0.671443 0.535515
0.987671 0.675196 0.528832
0.211246 0.63183 0.511223
0.219333 0.651148 0.52871
0.238956 0.674037 0.550225
0.313024 0.707393 0.586114
0.477607 0.749294 0.636896
0.597925 0.771481 0.662776
0.730159 0.78436 0.64596
0.884581 0.788907 0.581537
0.984771 0.790799 0.550408
0.268803 0.735378 0.581262
0.281559 0.754177 0.599145
0.315404 0.775631 0.621851
0.400671 0.802853 0.654017
0.527184 0.831449 0.691737
0.629297 0.850553 0.711238
0.720882 0.863066 0.707485
0.819974 0.869108 0.690059
0.933623 0.883604 0.648188
0.33106 0.827268 0.642329
0.347875 0.84332 0.659815
0.388586 0.859831 0.680049
0.462287 0.877043 0.704158
0.561486 0.897154 0.732845
0.659724 0.911681 0.753201
0.745418 0.922545 0.751583
0.825345 0.922942 0.726986
0.891234 0.919768 0.708247
0.0589303 0.112276 0.302007
0.0766613 0.11902 0.328923
0.124819 0.126589 0.366094
0.270512 0.125917 0.436042
0.404608 0.136019 0.481559
0.520165 0.152529 0.519768
0.624964 0.166598 0.554681
0.731319 0.182498 0.584039
0.838437 0.200595 0.607996
0.0568246 0.152224 0.298589
0.0790112 0.167056 0.325811
0.119783 0.184329 0.362036
0.248692 0.207523 0.441627
0.407721 0.213626 0.503182
0.533318 0.234775 0.54461
0.64242 0.251804 0.57818
0.753841 0.265629 0.606836
0.861265 0.280278 0.629572
0.0567941 0.220493 0.319738
0.0881361 0.239841 0.339696
0.128817 0.263035 0.363134
0.225254 0.310002 0.422858
0.398627 0.330388 0.520928
0.542504 0.347509 0.576013
0.658991 0.36817 0.609064
0.776394 0.38587 0.63537
0.882719 0.401679 0.65597
0.0585641 0.311467 0.374273
0.0973831 0.328496 0.39173
0.142885 0.348028 0.411109
0.214542 0.389441 0.435126
0.377081 0.461982 0.526452
0.53698 0.474159 0.60766
0.672053 0.490852 0.649653
0.79971 0.507317 0.671901
0.906493 0.519585 0.684413
0.0916762 0.409674 0.402441
0.12079 0.427649 0.424048
0.158968 0.445838 0.450599
0.222843 0.472755 0.487556
0.338872 0.540429 0.53518
0.527184 0.599145 0.62768
0.684382 0.61239 0.689235
0.83093 0.621302 0.706325
0.936584 0.6271 0.707393
0.151827 0.506859 0.42948
0.159426 0.52694 0.447669
0.169924 0.548455 0.468025
0.190524 0.577478 0.497047
0.285771 0.634333 0.558862
0.532341 0.702968 0.659236
0.734768 0.703883 0.698146
0.873991 0.70837 0.702235
0.96698 0.712673 0.698573
0.19324 0.61471 0.514015
0.199619 0.633051 0.530358
0.20795 0.653101 0.548424
0.226566 0.679774 0.573724
0.321904 0.725551 0.623499
0.562554 0.7897 0.708858
0.733791 0.804196 0.734829
0.893523 0.8056 0.701015
0.985443 0.807248 0.685634
0.238804 0.718257 0.592065
0.245609 0.736202 0.608484
0.256565 0.755337 0.626551
0.289525 0.777523 0.649836
0.414527 0.812985 0.693324
0.612818 0.858671 0.752346
0.743862 0.875761 0.773007
0.85095 0.885924 0.772549
0.953552 0.897765 0.742275
0.300053 0.811765 0.658015
0.309697 0.827909 0.674372
0.332128 0.844297 0.692042
0.392798 0.861479 0.712856
0.511681 0.885222 0.745174
0.656916 0.911315 0.784604
0.771237 0.924407 0.800992
0.856565 0.929656 0.794369
0.919066 0.928435 0.781796
0.0790112 0.14435 0.376287
0.0935378 0.149844 0.398413
0.12726 0.15787 0.43122
0.246342 0.167361 0.505669
0.399817 0.159243 0.547601
0.519066 0.173129 0.5794
0.623804 0.184054 0.61178
0.729397 0.19379 0.641505
0.842313 0.206241 0.668544
0.0770581 0.186221 0.371221
0.0957351 0.200473 0.397986
0.127321 0.21503 0.427924
0.220401 0.236179 0.485679
0.391943 0.242313 0.560052
0.527001 0.251865 0.602075
0.636316 0.267674 0.634668
0.747463 0.280461 0.664363
0.862669 0.291539 0.690517
0.0787976 0.256291 0.388556
0.106752 0.274632 0.407385
0.142214 0.295048 0.427802
0.215091 0.327764 0.46659
0.373754 0.364385 0.563195
0.528527 0.364752 0.627894
0.649256 0.381781 0.665064
0.768734 0.399695 0.693843
0.883024 0.415747 0.718166
0.0789502 0.339666 0.437629
0.11429 0.356664 0.45182
0.155703 0.375921 0.465003
0.218692 0.408545 0.481849
0.33695 0.473899 0.541558
0.515465 0.493828 0.646876
0.659968 0.501656 0.700801
0.791653 0.517235 0.728176
0.905089 0.53286 0.746822
0.0835279 0.432166 0.49984
0.125551 0.446174 0.515801
0.173526 0.461494 0.53286
0.230472 0.483192 0.549493
0.313787 0.538048 0.563531
0.50396 0.616602 0.653132
0.667506 0.622095 0.728237
0.815915 0.632837 0.761532
0.928771 0.646326 0.777584
0.126009 0.524575 0.50959
0.156039 0.540581 0.529381
0.191806 0.556848 0.553307
0.240452 0.575128 0.581933
0.329168 0.606531 0.623499
0.475929 0.686275 0.66302
0.67718 0.731136 0.747829
0.836759 0.741848 0.790158
0.941039 0.752346 0.804868
0.186404 0.610071 0.5205
0.194217 0.628473 0.53698
0.203616 0.647883 0.555261
0.218601 0.671168 0.578485
0.260533 0.70489 0.614404
0.446998 0.761105 0.686427
0.694057 0.818326 0.774838
0.868193 0.824399 0.80679
0.960113 0.829496 0.815
0.224491 0.704311 0.593561
0.230747 0.721553 0.608789
0.23801 0.739528 0.625208
0.250797 0.760708 0.645685
0.297368 0.789059 0.676997
0.476478 0.831724 0.73312
0.723232 0.881926 0.806638
0.86981 0.894102 0.830228
0.963012 0.902617 0.822904
0.266545 0.791775 0.66183
0.27332 0.807004 0.676265
0.283146 0.824094 0.692744
0.306157 0.842252 0.711574
0.38883 0.864469 0.73846
0.556512 0.89276 0.779904
0.759152 0.922271 0.830655
0.88101 0.928435 0.84448
0.934752 0.923674 0.839017
0.0978103 0.174929 0.444587
0.109895 0.179751 0.464149
0.133639 0.186221 0.489219
0.225101 0.19736 0.543664
0.389715 0.191806 0.606836
0.51136 0.194797 0.636866
0.614862 0.205753 0.664607
0.721187 0.214328 0.694026
0.841611 0.220005 0.718929
0.0955825 0.218631 0.43772
0.111666 0.232303 0.462287
0.137606 0.245487 0.488197
0.209323 0.263279 0.526787
0.359472 0.28275 0.605585
0.515312 0.27808 0.656733
0.62536 0.288853 0.68716
0.737881 0.301183 0.714656
0.860807 0.310582 0.738186
0.0996719 0.290562 0.45008
0.124514 0.308507 0.468452
0.1561 0.327001 0.486488
0.21445 0.35169 0.514488
0.330877 0.390936 0.593927
0.510491 0.394842 0.673579
0.637751 0.400336 0.713405
0.757748 0.415076 0.739773
0.879118 0.430335 0.76199
0.100343 0.370459 0.491569
0.132662 0.38761 0.504417
0.171542 0.406439 0.515343
0.228885 0.433356 0.528069
0.321447 0.481117 0.565637
0.496651 0.521981 0.677852
0.645411 0.517739 0.738155
0.779934 0.527886 0.767758
0.900877 0.54464 0.788357
0.0977798 0.454444 0.561883
0.138918 0.468788 0.573297
0.184237 0.484627 0.583185
0.237034 0.505943 0.59115
0.313512 0.550286 0.597711
0.464607 0.61883 0.657069
0.649409 0.635676 0.754086
0.803586 0.638636 0.795254
0.924559 0.652857 0.81503
0.113313 0.544457 0.61706
0.158724 0.556573 0.63241
0.208072 0.568872 0.649165
0.264012 0.583246 0.667414
0.331731 0.610468 0.677241
0.446906 0.67837 0.680873
0.653834 0.740536 0.762631
0.824033 0.744381 0.817899
0.935699 0.755947 0.83975
0.161196 0.63006 0.60827
0.190768 0.644434 0.625605
0.225132 0.659022 0.646601
0.269322 0.674708 0.671901
0.333013 0.694514 0.701015
0.468391 0.730953 0.743648
0.635889 0.806882 0.774838
0.839475 0.835721 0.836851
0.943389 0.843076 0.863218
0.219333 0.702205 0.60116
0.226841 0.718868 0.616175
0.235477 0.736202 0.632441
0.247776 0.756039 0.652155
0.274357 0.779782 0.678248
0.392248 0.814603 0.72314
0.626398 0.864195 0.793973
0.858213 0.898039 0.856626
0.961883 0.904021 0.882902
0.254093 0.781369 0.663844
0.260258 0.795651 0.677272
0.266819 0.810361 0.691371
0.277775 0.828458 0.709041
0.310277 0.850828 0.732662
0.434669 0.87631 0.766812
0.653834 0.908446 0.821134
0.875273 0.930297 0.871763
0.96231 0.930327 0.883879
0.114473 0.205447 0.505943
0.124788 0.209171 0.523857
0.144411 0.214664 0.545342
0.219699 0.223636 0.582055
0.361608 0.228855 0.658351
0.510475 0.225742 0.695247
0.609583 0.236027 0.716945
0.713039 0.242588 0.740841
0.833402 0.247929 0.763027
0.112917 0.253697 0.496681
0.127871 0.267491 0.520851
0.150546 0.279332 0.543755
0.207645 0.292271 0.574548
0.330816 0.311925 0.644862
0.508949 0.317205 0.707576
0.622614 0.323247 0.735866
0.731777 0.330327 0.759152
0.853849 0.338109 0.780179
0.119173 0.324987 0.506477
0.142123 0.342779 0.524681
0.172213 0.360113 0.541527
0.223697 0.380102 0.563653
0.313664 0.408209 0.613306
0.486122 0.433417 0.707057
0.6336 0.430732 0.755428
0.75378 0.437354 0.780148
0.872892 0.447028 0.799588
0.12192 0.402625 0.541009
0.152102 0.42002 0.55288
0.191257 0.438636 0.563104
0.245853 0.461494 0.573419
0.320562 0.495979 0.599359
0.449348 0.536645 0.686976
0.634028 0.544091 0.769345
0.775235 0.543999 0.802426
0.895293 0.554376 0.821073
0.118135 0.480781 0.608667
0.156435 0.495918 0.617426
0.198764 0.51284 0.624445
0.25211 0.533806 0.628016
0.324041 0.568231 0.631739
0.437415 0.619287 0.665034
0.619501 0.653529 0.767208
0.79324 0.649897 0.822721
0.918883 0.658534 0.844114
0.12256 0.562249 0.687495
0.169162 0.57351 0.69659
0.218082 0.585992 0.704982
0.269902 0.601617 0.711238
0.331243 0.627771 0.710689
0.432197 0.680842 0.704768
0.6094 0.741817 0.760525
0.809354 0.7514 0.837339
0.936431 0.758022 0.864713
0.145296 0.647822 0.72018
0.191104 0.657832 0.734249
0.241093 0.668177 0.750698
0.297978 0.679377 0.769131
0.361669 0.695186 0.782132
0.454841 0.72842 0.789639
0.599786 0.798795 0.780636
0.821317 0.838773 0.846525
0.948363 0.841794 0.882292
0.194736 0.722011 0.686824
0.221744 0.735042 0.702083
0.252506 0.748226 0.720088
0.291173 0.762875 0.742672
0.341924 0.778958 0.767086
0.44123 0.801419 0.801785
0.624445 0.843137 0.847013
0.815274 0.89456 0.858335
0.964721 0.90515 0.896269
0.249577 0.779477 0.670466
0.256657 0.794064 0.684352
0.264164 0.80853 0.698482
0.274937 0.825772 0.715663
0.296757 0.84625 0.737148
0.378424 0.870176 0.766812
0.580774 0.900694 0.814878
0.819272 0.927062 0.871611
0.982269 0.940063 0.905791
