assets/luts/Green1.cube
TITLE "Generated by Resolve"
LUT_3D_SIZE 9
0.0171511 0.0399786 0.0229648
0.0298772 0.0417792 0.0253758
0.0617075 0.0470741 0.0291142
0.135454 0.0543069 0.0310979
0.263645 0.0746471 0.041001
0.455528 0.113222 0.0590829
0.625208 0.155383 0.0758984
0.755627 0.190433 0.0887922
0.830762 0.211582 0.0962844
0.0247959 0.0624247 0.0263066
0.0450752 0.0686656 0.0289769
0.0909133 0.0788586 0.0306401
0.189014 0.0982071 0.035996
0.325978 0.123369 0.0467079
0.498344 0.155596 0.0612345
0.648203 0.189044 0.0757305
0.765148 0.216007 0.0877089
0.835081 0.233112 0.0951553
0.0429541 0.115724 0.0322728
0.0665751 0.125261 0.0356298
0.121172 0.141024 0.0382849
0.243565 0.167971 0.0437476
0.392264 0.197116 0.0552834
0.550668 0.225681 0.0660258
0.683497 0.251698 0.0776989
0.786694 0.271519 0.0878614
0.851148 0.284215 0.0953994
0.0747997 0.211292 0.0441138
0.101167 0.226062 0.0492409
0.165881 0.252506 0.0577554
0.291524 0.279026 0.059266
0.447395 0.305196 0.0673686
0.601968 0.326879 0.0751354
0.728023 0.343633 0.0841535
0.820951 0.356252 0.0922713
0.879728 0.364904 0.098909
0.151034 0.364584 0.0751965
0.180545 0.381964 0.0834974
0.253864 0.411643 0.0999008
0.35761 0.43505 0.10869
0.477485 0.443671 0.0935683
0.621561 0.454734 0.0904402
0.755444 0.464927 0.0959029
0.852522 0.470878 0.103746
0.910018 0.475883 0.110124
0.23415 0.496468 0.155215
0.276143 0.515908 0.16791
0.343191 0.542351 0.183215
0.422415 0.566461 0.194049
0.504891 0.57583 0.176333
0.615488 0.581323 0.141985
0.748486 0.591775 0.117708
0.855268 0.600107 0.127169
0.922072 0.604852 0.137026
0.34406 0.599115 0.298512
0.384146 0.61529 0.308736
0.440208 0.63595 0.316381
0.508568 0.65774 0.317662
0.580728 0.674998 0.30425
0.661006 0.687327 0.28246
0.759533 0.699992 0.262867
0.852522 0.711528 0.249454
0.919066 0.718547 0.21883
0.444389 0.677012 0.412436
0.49102 0.693935 0.422507
0.545525 0.71284 0.42855
0.603937 0.732341 0.426719
0.666514 0.751812 0.415579
0.735027 0.770245 0.403464
0.808026 0.788388 0.391623
0.87985 0.805081 0.385657
0.942138 0.818418 0.384909
0.567483 0.752194 0.509896
0.618265 0.769619 0.519097
0.666484 0.786877 0.521065
0.713726 0.803937 0.51606
0.765606 0.821836 0.507698
0.822919 0.840238 0.501259
0.879789 0.858259 0.500374
0.930037 0.874739 0.507729
0.968231 0.88777 0.524758
0.0180056 0.0432898 0.0330663
0.0314641 0.0455482 0.0390478
0.0740673 0.0485084 0.0456703
0.158953 0.0501259 0.0468757
0.297307 0.0625467 0.053727
0.479942 0.0940108 0.069276
0.639445 0.144289 0.0849775
0.761288 0.183185 0.0963455
0.834775 0.206348 0.103929
0.0245823 0.0694896 0.0421607
0.0480354 0.0797436 0.0515755
0.11281 0.0916304 0.0597848
0.223957 0.104936 0.0633555
0.362722 0.116915 0.0679942
0.519692 0.135485 0.0763104
0.659358 0.175402 0.0895857
0.77113 0.207904 0.0999924
0.841138 0.229206 0.10515
0.0410925 0.133593 0.057084
0.0659648 0.145266 0.065919
0.130648 0.163531 0.0724804
0.273945 0.186252 0.0751049
0.420356 0.204837 0.0792248
0.567086 0.222187 0.0852827
0.692348 0.24564 0.0962997
0.793286 0.267781 0.104738
0.858991 0.284077 0.108492
0.0722667 0.23859 0.0733349
0.0973373 0.251759 0.0816205
0.163699 0.279026 0.0939956
0.297658 0.303181 0.0944533
0.458183 0.319936 0.0917525
0.608499 0.335424 0.0968643
0.731929 0.348684 0.107591
0.826032 0.360021 0.114763
0.887221 0.368917 0.117708
0.133333 0.378958 0.10811
0.162097 0.394446 0.120027
0.235431 0.423362 0.134356
0.343252 0.44976 0.145754
0.47013 0.455924 0.135546
0.614496 0.462104 0.110307
0.753521 0.471489 0.118212
0.854871 0.476799 0.128588
0.916762 0.480751 0.132998
0.23241 0.508904 0.234989
0.271595 0.525368 0.244602
0.332586 0.547585 0.250889
0.417014 0.572045 0.256275
0.507591 0.584039 0.237949
0.614527 0.588327 0.209415
0.743526 0.595163 0.173632
0.855299 0.602777 0.146441
0.928771 0.607569 0.158923
0.339483 0.602548 0.351568
0.375921 0.615869 0.359075
0.4318 0.635157 0.365347
0.506355 0.658183 0.368994
0.583368 0.676844 0.353017
0.66363 0.690272 0.327169
0.757855 0.702388 0.299748
0.8533 0.71429 0.281575
0.927367 0.722286 0.255299
0.432761 0.674418 0.445106
0.481209 0.690166 0.457908
0.541238 0.710216 0.468391
0.606821 0.731868 0.471931
0.672526 0.752544 0.461387
0.739757 0.771008 0.444526
0.809247 0.78883 0.424475
0.879957 0.80557 0.408865
0.946471 0.820111 0.403479
0.546807 0.745922 0.531975
0.603342 0.762783 0.546807
0.660441 0.782757 0.555734
0.715831 0.803143 0.557244
0.770718 0.822766 0.549661
0.828 0.84123 0.542763
0.883909 0.859434 0.53962
0.933196 0.875624 0.541909
0.970459 0.887373 0.549172
0.0202335 0.0504768 0.0545815
0.0311894 0.0537881 0.0677958
0.0837873 0.0534676 0.0831464
0.184222 0.0424659 0.0805219
0.323629 0.0506142 0.087068
0.493538 0.0644388 0.0962234
0.65127 0.0970169 0.105577
0.768856 0.159411 0.113527
0.840497 0.192126 0.119066
0.026276 0.0798199 0.0701305
0.0501717 0.0903487 0.0885023
0.121111 0.101106 0.114855
0.258412 0.100237 0.118898
0.392935 0.110307 0.120363
0.535897 0.119463 0.122728
0.671321 0.129244 0.120531
0.780591 0.174777 0.122316
0.848112 0.215763 0.123186
0.0457465 0.151568 0.104799
0.0666056 0.164752 0.120668
0.142916 0.187289 0.148638
0.317006 0.202777 0.152834
0.452186 0.211582 0.151614
0.584298 0.218036 0.14818
0.703746 0.223392 0.138247
0.802945 0.241978 0.133837
0.868208 0.270298 0.133837
0.088716 0.269581 0.148409
0.109865 0.283299 0.161089
0.17084 0.310323 0.178653
0.329076 0.335363 0.183215
0.486305 0.339559 0.182544
0.623011 0.345632 0.176211
0.742687 0.348302 0.162951
0.83624 0.352987 0.156008
0.897581 0.363546 0.154223
0.154574 0.410712 0.219638
0.178988 0.423545 0.22916
0.237018 0.445899 0.2365
0.347951 0.471321 0.243626
0.493019 0.476661 0.228473
0.628794 0.475898 0.208392
0.760662 0.478859 0.192401
0.86334 0.480354 0.177646
0.927047 0.483909 0.178195
0.247532 0.525856 0.321584
0.278843 0.538598 0.328801
0.329473 0.555535 0.332204
0.415824 0.57911 0.33576
0.522896 0.595346 0.316899
0.627741 0.598978 0.282567
0.751293 0.60351 0.254887
0.863325 0.608759 0.23299
0.940581 0.611322 0.205493
0.340475 0.608301 0.406531
0.373495 0.619257 0.414221
0.427543 0.636088 0.423728
0.507134 0.659312 0.431937
0.592966 0.680247 0.418997
0.672328 0.694057 0.386374
0.761501 0.705882 0.34934
0.85832 0.718318 0.326207
0.939437 0.727871 0.303349
0.423484 0.673579 0.479881
0.470115 0.687663 0.49398
0.534356 0.707469 0.510414
0.607492 0.730541 0.521294
0.67837 0.752544 0.515007
0.744381 0.771435 0.493339
0.810468 0.789151 0.464988
0.880842 0.806653 0.43949
0.952407 0.823407 0.428595
0.52398 0.739391 0.5523
0.581338 0.755962 0.570291
0.64596 0.777035 0.586755
0.711757 0.799969 0.597025
0.772656 0.821912 0.594736
0.829969 0.841199 0.58645
0.885466 0.859892 0.578256
0.934325 0.876982 0.574136
0.9729 0.89044 0.574212
0.025803 0.065568 0.0985428
0.0340734 0.070222 0.121859
0.0862135 0.0732891 0.14844
0.223896 0.0513161 0.154635
0.351385 0.0440223 0.144717
0.507607 0.0609598 0.155169
0.649775 0.0768749 0.160586
0.768322 0.094667 0.15877
0.855695 0.120287 0.158572
0.03682 0.0983444 0.123445
0.0548562 0.107942 0.147845
0.108583 0.121492 0.183505
0.289998 0.109056 0.210315
0.424674 0.0964981 0.198489
0.553323 0.111254 0.195422
0.677378 0.129595 0.192691
0.785611 0.143145 0.185992
0.861494 0.158816 0.167086
0.0582437 0.172076 0.158968
0.076997 0.185565 0.181186
0.146914 0.211048 0.229984
0.3523 0.222614 0.276631
0.496696 0.213687 0.259236
0.607446 0.22388 0.242924
0.713024 0.233997 0.229084
0.807019 0.240101 0.213397
0.876432 0.241352 0.187472
0.104402 0.290227 0.229694
0.112276 0.29955 0.241672
0.178653 0.335027 0.279469
0.380682 0.377127 0.338216
0.535714 0.367788 0.310262
0.649012 0.363378 0.289998
0.753582 0.362463 0.274098
0.843076 0.361578 0.25568
0.907973 0.357519 0.229892
0.173404 0.430243 0.312001
0.19823 0.444877 0.326131
0.251926 0.465461 0.343496
0.364111 0.494545 0.367681
0.545129 0.507637 0.355291
0.657404 0.495949 0.321614
0.773648 0.49427 0.305531
0.870695 0.49305 0.292409
0.93817 0.490974 0.27129
0.264256 0.5411 0.39649
0.295094 0.553246 0.406775
0.340398 0.566842 0.416709
0.4262 0.589227 0.430106
0.552483 0.612085 0.427451
0.656443 0.613687 0.383169
0.768475 0.614801 0.346899
0.875456 0.618677 0.330739
0.953353 0.620951 0.319081
0.347417 0.616632 0.46041
0.378592 0.626352 0.470008
0.430121 0.640803 0.48365
0.512673 0.662837 0.500481
0.609186 0.685985 0.501823
0.688899 0.699504 0.465721
0.773297 0.711009 0.421637
0.86894 0.724086 0.391531
0.953628 0.735103 0.372137
0.418723 0.6757 0.515358
0.460472 0.687678 0.528923
0.524285 0.706172 0.54876
0.603647 0.728908 0.56817
0.683375 0.752483 0.572946
0.749752 0.771359 0.552392
0.814145 0.789319 0.518303
0.884947 0.80827 0.486503
0.961135 0.827817 0.470878
0.501442 0.733959 0.572564
0.555123 0.750149 0.590555
0.623545 0.770703 0.611948
0.697429 0.793881 0.630381
0.770779 0.818753 0.63827
0.83061 0.839704 0.632181
0.885588 0.859541 0.619883
0.934752 0.877775 0.610452
0.976013 0.894057 0.60621
0.0437781 0.0954604 0.16614
0.0547036 0.102358 0.200809
0.105409 0.114488 0.242908
0.258869 0.102846 0.283436
0.399725 0.0559243 0.254063
0.51931 0.0597391 0.248936
0.649241 0.0791028 0.25803
0.764401 0.0977951 0.260044
0.848997 0.122194 0.25832
0.0622263 0.137102 0.205295
0.0715801 0.148608 0.229572
0.128939 0.172213 0.278431
0.301885 0.176699 0.339086
0.470741 0.13817 0.323796
0.579736 0.120439 0.309728
0.688273 0.140917 0.302037
0.786862 0.176364 0.288075
0.859327 0.195865 0.270176
0.0869917 0.214511 0.242878
0.111208 0.230961 0.27155
0.166842 0.261952 0.319356
0.334295 0.293675 0.39469
0.539147 0.268635 0.400107
0.640665 0.253971 0.374609
0.732235 0.262242 0.353231
0.816968 0.275822 0.328878
0.882292 0.281956 0.30219
0.125063 0.319615 0.29041
0.133684 0.329641 0.304143
0.210147 0.371283 0.358938
0.370977 0.415 0.435569
0.588296 0.420432 0.46865
0.683864 0.397253 0.432578
0.769406 0.390356 0.403006
0.849867 0.387289 0.376242
0.912139 0.383612 0.347295
0.189105 0.440833 0.37467
0.193561 0.445914 0.380591
0.240604 0.471351 0.408179
0.373404 0.511879 0.462013
0.606332 0.548348 0.510689
0.696361 0.52604 0.464042
0.790143 0.513909 0.435737
0.877287 0.507866 0.415625
0.942565 0.503624 0.3935
0.26804 0.547555 0.451179
0.299626 0.560967 0.465248
0.354726 0.578958 0.485023
0.446983 0.603067 0.512047
0.591989 0.632593 0.54229
0.702785 0.634958 0.509056
0.791623 0.62945 0.465751
0.888655 0.629953 0.445014
0.962417 0.631266 0.433402
0.349676 0.62388 0.505806
0.382864 0.634333 0.517784
0.433005 0.648219 0.53402
0.514946 0.669047 0.556878
0.624887 0.693431 0.580194
0.715694 0.707668 0.562142
0.794003 0.717968 0.519387
0.884901 0.73109 0.485924
0.968536 0.742687 0.469795
0.41352 0.679408 0.548547
0.451286 0.690288 0.561715
0.507973 0.706188 0.580331
0.58883 0.72781 0.603922
0.683207 0.751781 0.625483
0.758923 0.771313 0.61767
0.822736 0.789731 0.587396
0.893462 0.809308 0.55787
0.971389 0.830991 0.542062
0.479591 0.730877 0.592752
0.528405 0.745602 0.610056
0.592203 0.764523 0.630686
0.670085 0.78674 0.653788
0.760037 0.812924 0.675746
0.830167 0.836164 0.677943
0.88658 0.857557 0.667475
0.935729 0.876738 0.655467
0.978653 0.894423 0.651514
0.0827039 0.160006 0.265095
0.0943465 0.173342 0.29749
0.153628 0.202853 0.350118
0.314229 0.22266 0.416373
0.50367 0.18674 0.423789
0.596063 0.157687 0.411032
0.683207 0.142336 0.407782
0.772717 0.155215 0.40911
0.845762 0.201007 0.408728
0.101564 0.215579 0.297734
0.111406 0.228824 0.322438
0.17641 0.267109 0.37882
0.334447 0.299367 0.450446
0.551888 0.287846 0.482368
0.648112 0.263981 0.467384
0.727474 0.25771 0.455344
0.804944 0.264103 0.445502
0.868086 0.290349 0.433829
0.128298 0.287709 0.336919
0.163729 0.312673 0.370214
0.21561 0.345174 0.411017
0.349508 0.385626 0.476905
0.584817 0.403571 0.535775
0.688029 0.377386 0.518883
0.762676 0.364218 0.501305
0.833478 0.359152 0.484321
0.892042 0.367758 0.465736
0.15935 0.372976 0.36527
0.183383 0.39089 0.389624
0.270771 0.431998 0.445472
0.394491 0.470787 0.506371
0.597391 0.508034 0.56939
0.716014 0.487098 0.562264
0.788266 0.46595 0.540856
0.857496 0.452323 0.519646
0.914626 0.451545 0.499611
0.209796 0.465965 0.418448
0.214069 0.471229 0.425681
0.286763 0.505531 0.466529
0.411994 0.544244 0.521767
0.612833 0.588373 0.588876
0.734218 0.583337 0.593912
0.804852 0.562219 0.570306
0.876677 0.547356 0.547036
0.938689 0.540108 0.528847
0.273396 0.553765 0.483818
0.278111 0.557931 0.488258
0.3252 0.577462 0.510674
0.428717 0.608103 0.551019
0.595987 0.647303 0.603342
0.738964 0.661768 0.617685
0.815274 0.655375 0.590188
0.893309 0.647211 0.566903
0.962768 0.645426 0.554162
0.333715 0.622797 0.536736
0.359426 0.632105 0.546975
0.414588 0.649088 0.566964
0.502403 0.672221 0.595575
0.62385 0.700267 0.628397
0.737789 0.718074 0.640635
0.819913 0.729519 0.620691
0.898802 0.739223 0.594675
0.976303 0.748562 0.580499
0.402167 0.682765 0.578683
0.440192 0.693767 0.592187
0.495338 0.709209 0.610712
0.570169 0.729244 0.633722
0.663523 0.751812 0.658671
0.762264 0.77174 0.672938
0.836103 0.791074 0.662669
0.905348 0.810636 0.642939
0.979644 0.832395 0.632486
0.463523 0.732662 0.616739
0.508736 0.745739 0.632471
0.566735 0.762753 0.651682
0.64004 0.783078 0.673899
0.723598 0.804578 0.696696
0.818372 0.829862 0.716274
0.887221 0.853574 0.718349
0.939269 0.873915 0.710246
0.981598 0.891295 0.708659
0.132021 0.268315 0.367834
0.148104 0.285588 0.396262
0.223972 0.327932 0.453605
0.355016 0.361151 0.511971
0.571557 0.385 0.571557
0.680797 0.359747 0.564187
0.743679 0.352468 0.560418
0.797665 0.347951 0.557
0.845396 0.355154 0.554864
0.151537 0.317693 0.394553
0.167941 0.334813 0.416617
0.246509 0.377798 0.471489
0.366079 0.41323 0.526879
0.583688 0.449958 0.594614
0.704829 0.434104 0.594751
0.768063 0.424689 0.588922
0.821088 0.418906 0.583581
0.867796 0.422232 0.577722
0.188983 0.382452 0.430137
0.240192 0.410727 0.46656
0.286915 0.435935 0.496696
0.385519 0.470207 0.543221
0.585901 0.51397 0.610239
0.723201 0.510307 0.623362
0.786252 0.496803 0.61532
0.839307 0.485527 0.60766
0.886717 0.482567 0.599954
0.203662 0.439551 0.441947
0.257893 0.468116 0.478462
0.337682 0.498344 0.521935
0.440742 0.531395 0.569329
0.58262 0.570199 0.620111
0.732616 0.581552 0.645899
0.800443 0.565454 0.638743
0.854795 0.549096 0.630014
0.904891 0.541543 0.621073
0.239963 0.504707 0.470787
0.263874 0.518242 0.488716
0.342031 0.548791 0.528527
0.45655 0.583215 0.578012
0.613245 0.623102 0.634867
0.735821 0.639857 0.661418
0.811704 0.627665 0.658289
0.870741 0.611017 0.649531
0.924834 0.60174 0.641505
0.286488 0.56965 0.512612
0.293858 0.575082 0.519738
0.362661 0.600931 0.551751
0.456901 0.628611 0.590173
0.597086 0.663966 0.638392
0.7411 0.689082 0.673716
0.821683 0.686793 0.675364
0.888975 0.679927 0.669032
0.949508 0.6766 0.659846
0.331533 0.627039 0.555611
0.337682 0.631586 0.560571
0.397604 0.652216 0.585641
0.480293 0.675669 0.616938
0.594202 0.704326 0.653986
0.736416 0.732189 0.688304
0.830076 0.742519 0.693019
0.907835 0.75494 0.690471
0.972351 0.759228 0.680949
0.376791 0.680415 0.59707
0.399496 0.688975 0.606516
0.464714 0.70837 0.630259
0.542901 0.730007 0.656779
0.641352 0.754162 0.685222
0.753124 0.77644 0.710002
0.838407 0.791394 0.716579
0.915114 0.814282 0.717388
0.984192 0.834333 0.713466
0.434455 0.732937 0.637705
0.482017 0.747021 0.654047
0.545098 0.764645 0.674723
0.617563 0.784237 0.696498
0.700343 0.804776 0.718975
0.792859 0.826032 0.741558
0.872862 0.846159 0.754177
0.939391 0.869612 0.759564
0.981292 0.886168 0.761471
0.190799 0.381201 0.465614
0.227955 0.406821 0.496406
0.297292 0.439216 0.537636
0.391043 0.467613 0.577813
0.558495 0.505531 0.634028
0.709087 0.520455 0.663569
0.775174 0.505653 0.657755
0.815213 0.495506 0.655222
0.847196 0.492195 0.653803
0.23447 0.430671 0.498848
0.267887 0.45127 0.521538
0.317388 0.474174 0.549371
0.403952 0.502327 0.58674
0.560128 0.541482 0.640024
0.718639 0.564508 0.676127
0.7888 0.553765 0.673503
0.831144 0.54432 0.671458
0.864759 0.541985 0.67068
0.272709 0.480003 0.521904
0.32163 0.498482 0.548974
0.363531 0.516503 0.571145
0.427649 0.540963 0.599649
0.563455 0.577905 0.646555
0.722271 0.606836 0.686412
0.800275 0.601511 0.689219
0.845762 0.591302 0.687312
0.880262 0.587503 0.685374
0.269764 0.513909 0.522225
0.326711 0.535927 0.552407
0.399039 0.559213 0.586069
0.489113 0.586358 0.623728
0.576226 0.614725 0.656367
0.721599 0.645243 0.695094
0.808362 0.64593 0.703502
0.859022 0.635447 0.702281
0.896208 0.629343 0.699443
0.276219 0.549844 0.528008
0.329747 0.571847 0.556802
0.398322 0.5944 0.588632
0.495506 0.622705 0.628595
0.620096 0.655741 0.673335
0.722454 0.680827 0.703548
0.813672 0.686275 0.715999
0.870695 0.677409 0.716258
0.913146 0.669825 0.714046
0.30602 0.594278 0.551766
0.342336 0.609583 0.57116
0.409384 0.631464 0.60029
0.493858 0.655909 0.634119
0.608774 0.685893 0.67451
0.73518 0.715038 0.712856
0.819516 0.725307 0.727825
0.882963 0.721935 0.731319
0.933791 0.718288 0.731487
0.340795 0.640146 0.582086
0.371298 0.652811 0.597284
0.435584 0.672999 0.623529
0.510948 0.694667 0.652461
0.608179 0.720287 0.685405
0.728603 0.748486 0.721248
0.827893 0.764645 0.742077
0.895232 0.768185 0.747402
0.957031 0.775265 0.752132
0.376226 0.686519 0.615976
0.410025 0.699214 0.630701
0.472984 0.718456 0.655161
0.543526 0.738613 0.681086
0.629511 0.761105 0.708919
0.732799 0.78471 0.737591
0.834424 0.803128 0.758221
0.908446 0.815488 0.767056
0.977279 0.836316 0.778012
0.413046 0.734234 0.653529
0.463813 0.750362 0.672267
0.527886 0.768719 0.694835
0.599176 0.788357 0.718303
0.681529 0.80885 0.74168
0.772061 0.828931 0.764538
0.860456 0.846723 0.782818
0.930098 0.863432 0.794217
0.976989 0.881437 0.803265
0.279576 0.488563 0.561425
0.31696 0.508797 0.583444
0.360769 0.525948 0.604532
0.427146 0.545693 0.630335
0.535256 0.573022 0.665248
0.6748 0.60238 0.704936
0.777264 0.61088 0.720989
0.828962 0.600198 0.718639
0.855665 0.585336 0.714397
0.334478 0.527474 0.588357
0.355566 0.537728 0.599634
0.383413 0.550393 0.613489
0.439353 0.568658 0.636133
0.538949 0.594568 0.669459
0.677729 0.625574 0.70927
0.785428 0.6392 0.729168
0.84094 0.63357 0.73019
0.870268 0.623713 0.728084
0.339315 0.553292 0.590707
0.385718 0.56701 0.61207
0.429526 0.581109 0.631373
0.469947 0.596551 0.649012
0.550072 0.619837 0.677501
0.679896 0.650309 0.714656
0.791882 0.668376 0.737713
0.852476 0.666911 0.741527
0.88539 0.660929 0.741436
0.340017 0.5785 0.594614
0.384588 0.592645 0.614755
0.44892 0.610254 0.640879
0.520409 0.630137 0.668391
0.57998 0.650309 0.691463
0.685527 0.677409 0.722667
0.798001 0.698268 0.746914
0.863676 0.700587 0.753155
0.900801 0.697475 0.754925
0.340826 0.605081 0.600122
0.390356 0.620981 0.621881
0.449042 0.63827 0.646281
0.526299 0.659571 0.675364
0.626322 0.685481 0.70898
0.702144 0.708324 0.734478
0.805844 0.730037 0.758083
0.874891 0.735424 0.766155
0.917189 0.734264 0.769421
0.350271 0.635554 0.610895
0.404929 0.653758 0.634089
0.461891 0.670649 0.657145
0.533989 0.690639 0.684321
0.624903 0.714473 0.715099
0.731975 0.741497 0.748135
0.814374 0.762158 0.770443
0.885023 0.770123 0.780484
0.933059 0.772 0.785657
0.372122 0.670436 0.629938
0.431189 0.689479 0.653239
0.48838 0.706294 0.675471
0.555993 0.725048 0.70016
0.636469 0.746242 0.726787
0.733883 0.770916 0.756588
0.827497 0.792065 0.78172
0.892164 0.802853 0.794339
0.94638 0.808667 0.802335
0.408301 0.709453 0.655711
0.468223 0.727626 0.677836
0.526604 0.744579 0.699489
0.591089 0.762203 0.721859
0.663951 0.781201 0.744762
0.747082 0.801221 0.768795
0.833829 0.821012 0.791852
0.902541 0.834318 0.807507
0.957504 0.843717 0.818006
0.465202 0.754986 0.689906
0.516472 0.768704 0.707424
0.572885 0.78436 0.726848
0.635828 0.801526 0.747311
0.706447 0.819394 0.767971
0.783261 0.837613 0.78912
0.85362 0.852323 0.806226
0.914687 0.864118 0.81915
0.967666 0.876631 0.831373
